;START_OF_HEADER
;HEADER_VERSION:0.1
;FLAVOR:Griffin
;GENERATOR.NAME:Cura_SteamEngine
;GENERATOR.VERSION:4.4.0
;GENERATOR.BUILD_DATE:2019-11-19
;TARGET_MACHINE.NAME:Ultimaker 3
;EXTRUDER_TRAIN.0.INITIAL_TEMPERATURE:230
;EXTRUDER_TRAIN.0.MATERIAL.VOLUME_USED:25317
;EXTRUDER_TRAIN.0.MATERIAL.GUID:0e01be8c-e425-4fb1-b4a3-b79f255f1db9
;EXTRUDER_TRAIN.0.NOZZLE.DIAMETER:0.8
;EXTRUDER_TRAIN.0.NOZZLE.NAME:AA 0.8
;BUILD_PLATE.TYPE:glass
;BUILD_PLATE.INITIAL_TEMPERATURE:60
;PRINT.TIME:2683
;PRINT.GROUPS:1
;PRINT.SIZE.MIN.X:1.924
;PRINT.SIZE.MIN.Y:6
;PRINT.SIZE.MIN.Z:0.53
;PRINT.SIZE.MAX.X:213.408
;PRINT.SIZE.MAX.Y:212.174
;PRINT.SIZE.MAX.Z:4.82
;END_OF_HEADER
;Generated with Cura_SteamEngine 4.4.0
T0
M82 ;absolute extrusion mode

G92 E0
M109 S230
G0 F15000 X9 Y6 Z2
G280
G1 F1500 E-6.5
;LAYER_COUNT:14
;LAYER:0
M107
M204 S625
M205 X30 Y30
G0 F6000 X40.737 Y31.054 Z0.53
M204 S500
M205 X25 Y25
;TYPE:SKIRT
G1 F900 E0
G1 F1200 X40.773 Y31.009 E0.0046
G1 X41.153 Y30.552 E0.052
G1 X41.217 Y30.479 E0.05974
G1 X41.44 Y30.244 E0.08558
G1 X41.48 Y30.204 E0.09009
G1 X41.944 Y29.751 E0.14181
G1 X42.006 Y29.694 E0.14853
G1 X42.238 Y29.492 E0.17306
G1 X42.291 Y29.448 E0.17856
G1 X42.815 Y29.033 E0.23187
G1 X42.879 Y28.985 E0.23825
G1 X43.101 Y28.828 E0.25994
G1 X43.159 Y28.789 E0.26551
G1 X43.721 Y28.43 E0.3187
G1 X43.791 Y28.388 E0.32521
G1 X44.071 Y28.23 E0.35085
G1 X44.13 Y28.198 E0.3562
G1 X44.67 Y27.925 E0.40446
G1 X44.737 Y27.893 E0.41039
G1 X45.005 Y27.774 E0.43377
G1 X45.072 Y27.747 E0.43953
G1 X45.728 Y27.493 E0.49564
G1 X45.813 Y27.463 E0.50283
G1 X46.086 Y27.376 E0.52568
G1 X46.145 Y27.358 E0.5306
G1 X46.79 Y27.182 E0.58393
G1 X46.869 Y27.163 E0.59041
G1 X47.153 Y27.102 E0.61357
G1 X47.22 Y27.089 E0.61902
G1 X47.843 Y26.985 E0.66939
G1 X47.927 Y26.974 E0.67615
G1 X48.679 Y26.892 E0.73648
G1 X48.691 Y26.89 E0.73745
G1 X50.861 Y26.672 E0.9114
G1 X53.622 Y26.314 E1.13345
G1 X56.362 Y25.881 E1.35469
G1 X59.13 Y25.362 E1.57931
G1 X61.824 Y24.777 E1.79918
G1 X64.5 Y24.118 E2.01899
G1 X67.225 Y23.364 E2.24449
G1 X69.889 Y22.545 E2.46677
G1 X72.532 Y21.649 E2.68936
G1 X75.125 Y20.689 E2.90988
G1 X77.742 Y19.633 E3.13496
G1 X80.888 Y18.247 E3.40915
G1 X82.018 Y17.725 E3.50842
G1 X82.056 Y17.709 E3.51171
G1 X82.259 Y17.622 E3.52932
G1 X82.322 Y17.596 E3.53476
G1 X82.908 Y17.376 E3.58468
G1 X82.984 Y17.35 E3.59109
G1 X83.601 Y17.156 E3.64267
G1 X83.625 Y17.149 E3.64467
G1 X84.694 Y16.833 E3.73358
G1 X84.708 Y16.829 E3.73474
G1 X86.412 Y16.343 E3.87606
G1 X86.427 Y16.339 E3.8773
G1 X87.587 Y16.021 E3.97323
G1 X87.604 Y16.016 E3.97464
G1 X90.244 Y15.326 E4.19228
G1 X90.259 Y15.322 E4.19351
G1 X91.275 Y15.068 E4.27704
G1 X94.004 Y14.418 E4.50079
G1 X94.018 Y14.415 E4.50193
G1 X98.026 Y13.5 E4.82982
G1 X100.698 Y12.806 E5.05
G1 X103.375 Y12.029 E5.27232
G1 X106.03 Y11.176 E5.49473
G1 X108.671 Y10.245 E5.71808
G1 X111.23 Y9.26 E5.93677
G1 X113.845 Y8.169 E6.16276
G1 X116.394 Y7.019 E6.38579
G1 X116.968 Y6.754 E6.43621
G1 X117.294 Y6.647 E6.46358
G1 X117.542 Y6.618 E6.48349
G1 X117.824 Y6.609 E6.506
G1 X117.87 Y6.608 E6.50967
G1 X123.12 Y6.606 E6.92839
G1 X123.142 Y6.606 E6.93014
G1 X123.84 Y6.616 E6.98582
G1 X123.922 Y6.62 E6.99237
G1 X124.266 Y6.644 E7.01987
G1 X124.288 Y6.645 E7.02163
G1 X126.442 Y6.828 E7.19404
G1 X129.249 Y6.987 E7.41828
G1 X131.997 Y7.064 E7.63754
G1 X134.814 Y7.064 E7.86221
G1 X137.564 Y6.985 E8.08163
G1 X140.388 Y6.825 E8.30723
G1 X142.027 Y6.695 E8.43836
G1 X142.85 Y6.623 E8.50425
G1 X142.934 Y6.618 E8.51096
G1 X143.253 Y6.608 E8.53642
G1 X143.299 Y6.607 E8.54009
G1 X148.521 Y6.606 E8.95658
G1 X148.542 Y6.606 E8.95825
G1 X149.245 Y6.616 E9.01432
G1 X149.586 Y6.661 E9.04176
G1 X149.852 Y6.756 E9.06429
G1 X150.344 Y6.986 E9.1076
G1 X152.921 Y8.151 E9.33316
G1 X155.451 Y9.21 E9.55191
G1 X158.064 Y10.219 E9.77531
G1 X160.704 Y11.151 E9.99861
G1 X163.36 Y12.006 E10.22115
G1 X166.037 Y12.786 E10.44353
G1 X168.732 Y13.488 E10.66565
G1 X171.607 Y14.149 E10.90093
G1 X171.607 Y14.148 E10.90101
G1 X172.795 Y14.415 E10.99813
G1 X172.813 Y14.419 E10.9996
G1 X175.502 Y15.06 E11.22007
G1 X175.518 Y15.064 E11.22139
G1 X176.599 Y15.334 E11.31025
G1 X176.615 Y15.338 E11.31157
G1 X179.222 Y16.02 E11.52649
G1 X179.237 Y16.024 E11.52773
G1 X180.347 Y16.327 E11.6195
G1 X180.362 Y16.332 E11.62076
G1 X182.823 Y17.033 E11.82485
G1 X182.845 Y17.039 E11.82667
G1 X183.426 Y17.214 E11.87506
G1 X183.468 Y17.227 E11.87857
G1 X184.066 Y17.427 E11.92886
G1 X184.106 Y17.441 E11.93224
G1 X184.417 Y17.555 E11.95866
G1 X184.5 Y17.588 E11.96578
G1 X184.766 Y17.704 E11.98893
G1 X184.823 Y17.731 E11.99396
G1 X185.337 Y17.982 E12.03958
G1 X185.418 Y18.025 E12.04689
G1 X185.656 Y18.16 E12.06872
G1 X185.709 Y18.191 E12.07362
G1 X186.221 Y18.51 E12.12173
G1 X186.293 Y18.558 E12.12863
G1 X186.505 Y18.708 E12.14934
G1 X186.558 Y18.747 E12.15459
G1 X187.032 Y19.115 E12.20245
G1 X187.096 Y19.168 E12.20908
G1 X187.298 Y19.344 E12.23045
G1 X187.346 Y19.388 E12.23564
G1 X187.756 Y19.778 E12.28077
G1 X187.813 Y19.835 E12.2872
G1 X188.008 Y20.042 E12.30988
G1 X188.057 Y20.097 E12.31576
G1 X188.415 Y20.517 E12.35977
G1 X188.46 Y20.572 E12.36544
G1 X188.643 Y20.809 E12.38932
G1 X188.69 Y20.874 E12.39572
G1 X189.671 Y22.296 E12.5335
G1 X189.682 Y22.311 E12.53499
G1 X190.108 Y22.945 E12.59591
G1 X191.726 Y25.217 E12.81837
G1 X193.389 Y27.417 E13.03832
G1 X195.155 Y29.624 E13.26376
G1 X196.945 Y31.731 E13.48427
G1 X198.814 Y33.811 E13.70729
G1 X200.714 Y35.809 E13.9272
G1 X202.715 Y37.798 E14.15222
G1 X205.235 Y40.165 E14.42797
G1 X205.291 Y40.221 E14.43428
G1 X205.468 Y40.406 E14.4547
G1 X205.519 Y40.462 E14.46074
G1 X205.916 Y40.922 E14.50921
G1 X205.969 Y40.986 E14.51583
G1 X206.126 Y41.19 E14.53636
G1 X206.164 Y41.242 E14.5415
G1 X206.298 Y41.432 E14.56004
G1 X207.932 Y43.71 E14.78364
G1 X209.635 Y45.947 E15.00787
G1 X211.358 Y48.084 E15.22681
G1 X213.035 Y50.049 E15.43285
G1 X213.226 Y50.335 E15.46028
G1 X213.346 Y50.656 E15.48761
G1 X213.385 Y50.903 E15.50755
G1 X213.404 Y51.164 E15.52843
G1 X213.408 Y51.278 E15.53752
G1 X213.407 Y51.504 E15.55555
G1 X213.407 Y51.52 E15.55682
G1 X213.324 Y56.753 E15.97424
G1 X213.323 Y56.775 E15.976
G1 X213.301 Y57.494 E16.03337
G1 X213.297 Y57.576 E16.03992
G1 X213.274 Y57.843 E16.06129
G1 X213.072 Y60.603 E16.28201
G1 X212.946 Y63.43 E16.50771
G1 X212.901 Y66.191 E16.72795
G1 X212.934 Y68.959 E16.94873
G1 X213.046 Y71.743 E17.17095
G1 X213.24 Y74.563 E17.3964
G1 X213.393 Y76.236 E17.53039
G1 X213.398 Y76.327 E17.53766
G1 X213.407 Y76.631 E17.56191
G1 X213.408 Y76.688 E17.56646
G1 X213.406 Y76.91 E17.58417
G1 X213.406 Y76.92 E17.58496
G1 X213.324 Y82.15 E18.00214
G1 X213.323 Y82.172 E18.0039
G1 X213.301 Y82.9 E18.06199
G1 X213.251 Y83.24 E18.0894
G1 X213.136 Y83.536 E18.11472
G1 X212.893 Y84.005 E18.15685
G1 X212.88 Y84.029 E18.15903
G1 X212.052 Y85.557 E18.29764
G1 X210.775 Y88.081 E18.52325
G1 X209.589 Y90.602 E18.74545
G1 X208.49 Y93.119 E18.9645
G1 X207.419 Y95.769 E19.19246
G1 X206.479 Y98.314 E19.40885
G1 X205.578 Y100.971 E19.63261
G1 X204.752 Y103.656 E19.85667
G1 X204.186 Y105.674 E20.02383
G1 X203.577 Y107.926 E20.20989
G1 X203.572 Y107.945 E20.21146
G1 X203.267 Y109.017 E20.30035
G1 X203.262 Y109.034 E20.30176
G1 X202.482 Y111.658 E20.52009
G1 X202.476 Y111.676 E20.52161
G1 X202.17 Y112.658 E20.60364
G1 X202.165 Y112.674 E20.60498
G1 X201.308 Y115.319 E20.82673
G1 X201.301 Y115.34 E20.8285
G1 X200.948 Y116.378 E20.91594
G1 X200.943 Y116.392 E20.91713
G1 X200.093 Y118.808 E21.1214
G1 X200.087 Y118.825 E21.12284
G1 X199.62 Y120.103 E21.23136
G1 X199.613 Y120.121 E21.2329
G1 X198.722 Y122.464 E21.43282
G1 X198.716 Y122.481 E21.43426
G1 X198.23 Y123.712 E21.53982
G1 X198.223 Y123.729 E21.54128
G1 X197.285 Y126.025 E21.7391
G1 X197.278 Y126.041 E21.74049
G1 X196.766 Y127.252 E21.84535
G1 X196.759 Y127.27 E21.84689
G1 X195.727 Y129.627 E22.05211
G1 X195.719 Y129.644 E22.05361
G1 X195.215 Y130.755 E22.15091
G1 X195.208 Y130.77 E22.15223
G1 X194.12 Y133.099 E22.35725
G1 X194.112 Y133.117 E22.35882
G1 X193.543 Y134.295 E22.46316
G1 X193.535 Y134.311 E22.46459
G1 X192.405 Y136.579 E22.66669
G1 X192.397 Y136.595 E22.66811
G1 X191.866 Y137.63 E22.76089
G1 X191.857 Y137.646 E22.76236
G1 X190.587 Y140.046 E22.97892
G1 X190.578 Y140.063 E22.98045
G1 X190.025 Y141.076 E23.0725
G1 X190.016 Y141.092 E23.07397
G1 X189.102 Y142.72 E23.22287
G1 X187.752 Y145.206 E23.4485
G1 X186.5 Y147.677 E23.66943
G1 X185.321 Y150.173 E23.8896
G1 X184.204 Y152.727 E24.11192
G1 X183.142 Y155.349 E24.33755
G1 X182.184 Y157.925 E24.55675
G1 X181.274 Y160.599 E24.78203
G1 X180.465 Y163.221 E25.00088
G1 X179.707 Y165.946 E25.22647
G1 X179.034 Y168.655 E25.4491
G1 X178.444 Y171.372 E25.67085
G1 X177.928 Y174.111 E25.89314
G1 X177.496 Y176.821 E26.11201
G1 X177.13 Y179.626 E26.33763
G1 X176.855 Y182.305 E26.55242
G1 X176.847 Y182.368 E26.55748
G1 X176.803 Y182.669 E26.58175
G1 X176.792 Y182.737 E26.58724
G1 X176.668 Y183.376 E26.63916
G1 X176.65 Y183.456 E26.6457
G1 X176.569 Y183.777 E26.6721
G1 X176.551 Y183.843 E26.67756
G1 X176.371 Y184.439 E26.72721
G1 X176.346 Y184.515 E26.73359
G1 X176.249 Y184.783 E26.75633
G1 X176.224 Y184.846 E26.76173
G1 X175.967 Y185.466 E26.81526
G1 X175.936 Y185.537 E26.82144
G1 X175.809 Y185.803 E26.84495
G1 X175.774 Y185.87 E26.85098
G1 X175.451 Y186.466 E26.90504
G1 X175.413 Y186.533 E26.91119
G1 X175.256 Y186.79 E26.93521
G1 X175.218 Y186.848 E26.94074
G1 X174.855 Y187.384 E26.99237
G1 X174.806 Y187.453 E26.99912
G1 X174.631 Y187.682 E27.0221
G1 X174.589 Y187.734 E27.02744
G1 X174.152 Y188.255 E27.08167
G1 X174.1 Y188.314 E27.08794
G1 X173.916 Y188.511 E27.10944
G1 X173.866 Y188.562 E27.11514
G1 X173.377 Y189.038 E27.16957
G1 X173.32 Y189.09 E27.17572
G1 X173.118 Y189.267 E27.19714
G1 X173.065 Y189.312 E27.20269
G1 X172.536 Y189.733 E27.25661
G1 X172.469 Y189.783 E27.26328
G1 X172.219 Y189.96 E27.28771
G1 X172.162 Y189.999 E27.29322
G1 X171.623 Y190.344 E27.34426
G1 X171.551 Y190.386 E27.3509
G1 X171.251 Y190.555 E27.37837
G1 X171.191 Y190.588 E27.38383
G1 X170.661 Y190.855 E27.43116
G1 X170.592 Y190.887 E27.43723
G1 X170.304 Y191.014 E27.46233
G1 X170.242 Y191.04 E27.46769
G1 X169.608 Y191.286 E27.52193
G1 X169.525 Y191.315 E27.52894
G1 X169.26 Y191.4 E27.55114
G1 X169.195 Y191.42 E27.55656
G1 X168.541 Y191.597 E27.6106
G1 X168.47 Y191.614 E27.61642
G1 X168.205 Y191.672 E27.63806
G1 X168.13 Y191.686 E27.64415
G1 X167.452 Y191.798 E27.69895
G1 X167.371 Y191.809 E27.70547
G1 X166.589 Y191.894 E27.76821
G1 X166.578 Y191.895 E27.76909
G1 X164.452 Y192.11 E27.93952
G1 X161.67 Y192.471 E28.16326
G1 X158.92 Y192.908 E28.38535
G1 X156.157 Y193.427 E28.60957
G1 X153.476 Y194.009 E28.82838
G1 X150.754 Y194.683 E29.05203
G1 X148.084 Y195.422 E29.27299
G1 X145.381 Y196.254 E29.49855
G1 X142.783 Y197.136 E29.71737
G1 X140.131 Y198.12 E29.94298
G1 X137.573 Y199.153 E30.163
G1 X134.443 Y200.532 E30.4358
G1 X133.312 Y201.054 E30.53515
G1 X133.272 Y201.072 E30.53865
G1 X133.049 Y201.167 E30.55798
G1 X132.989 Y201.191 E30.56313
G1 X132.413 Y201.407 E30.6122
G1 X132.335 Y201.433 E30.61875
G1 X131.674 Y201.64 E30.674
G1 X131.65 Y201.648 E30.67601
G1 X130.676 Y201.935 E30.757
G1 X130.665 Y201.938 E30.75791
G1 X128.881 Y202.448 E30.9059
G1 X128.865 Y202.453 E30.90723
G1 X127.754 Y202.757 E30.9991
G1 X127.737 Y202.761 E31.00049
G1 X125.156 Y203.436 E31.21327
G1 X125.141 Y203.44 E31.21451
G1 X123.993 Y203.727 E31.30888
G1 X121.34 Y204.359 E31.5264
G1 X121.321 Y204.363 E31.52795
G1 X120.056 Y204.647 E31.63135
G1 X117.32 Y205.276 E31.85526
G1 X114.63 Y205.975 E32.07693
G1 X111.961 Y206.749 E32.29857
G1 X109.32 Y207.597 E32.5198
G1 X106.665 Y208.533 E32.74433
G1 X104.092 Y209.523 E32.96421
G1 X101.481 Y210.614 E33.1899
G1 X98.953 Y211.754 E33.41108
G1 X98.752 Y211.85 E33.42885
G1 X98.723 Y211.864 E33.43141
G1 X98.37 Y212.024 E33.46233
G1 X98.043 Y212.129 E33.48972
G1 X97.836 Y212.154 E33.50635
G1 X97.489 Y212.172 E33.53406
G1 X97.412 Y212.174 E33.5402
G1 X92.19 Y212.174 E33.95669
G1 X91.493 Y212.164 E34.01229
G1 X91.409 Y212.16 E34.019
G1 X91.059 Y212.135 E34.04698
G1 X91.039 Y212.134 E34.04858
G1 X88.91 Y211.953 E34.21899
G1 X86.103 Y211.794 E34.44323
G1 X83.353 Y211.716 E34.66265
G1 X80.538 Y211.716 E34.88716
G1 X77.788 Y211.794 E35.10658
G1 X74.964 Y211.954 E35.33218
G1 X73.321 Y212.084 E35.46363
G1 X72.491 Y212.156 E35.53008
G1 X72.41 Y212.161 E35.53655
G1 X72.103 Y212.171 E35.56105
G1 X72.056 Y212.172 E35.5648
G1 X66.812 Y212.174 E35.98304
G1 X66.79 Y212.174 E35.98479
G1 X66.092 Y212.164 E36.04047
G1 X65.751 Y212.119 E36.0679
G1 X65.49 Y212.027 E36.08998
G1 X64.936 Y211.77 E36.13868
G1 X62.371 Y210.612 E36.36314
G1 X59.83 Y209.549 E36.58282
G1 X57.2 Y208.536 E36.8076
G1 X54.588 Y207.615 E37.0285
G1 X51.931 Y206.761 E37.25109
G1 X49.255 Y205.983 E37.47336
G1 X46.588 Y205.29 E37.69313
G1 X42.521 Y204.361 E38.02586
G1 X42.508 Y204.358 E38.02692
G1 X39.855 Y203.726 E38.24444
G1 X39.839 Y203.722 E38.24575
G1 X38.706 Y203.439 E38.33889
G1 X38.691 Y203.435 E38.34013
G1 X36.136 Y202.767 E38.55076
G1 X36.119 Y202.763 E38.55215
G1 X34.953 Y202.444 E38.64857
G1 X34.938 Y202.439 E38.64983
G1 X32.507 Y201.745 E38.85146
G1 X32.488 Y201.74 E38.85303
G1 X31.855 Y201.55 E38.90574
G1 X31.814 Y201.537 E38.90917
G1 X31.302 Y201.367 E38.9522
G1 X31.255 Y201.35 E38.95619
G1 X30.933 Y201.231 E38.98356
G1 X30.862 Y201.203 E38.98965
G1 X30.615 Y201.097 E39.01109
G1 X30.549 Y201.066 E39.0169
G1 X29.989 Y200.792 E39.06663
G1 X29.917 Y200.755 E39.07308
G1 X29.681 Y200.623 E39.09465
G1 X29.621 Y200.588 E39.10019
G1 X29.126 Y200.28 E39.14669
G1 X29.055 Y200.232 E39.15353
G1 X28.858 Y200.093 E39.17275
G1 X28.805 Y200.054 E39.178
G1 X28.313 Y199.673 E39.22763
G1 X28.246 Y199.618 E39.23455
G1 X28.019 Y199.42 E39.25857
G1 X27.972 Y199.378 E39.2636
G1 X27.566 Y198.992 E39.30828
G1 X27.51 Y198.936 E39.3146
G1 X27.321 Y198.736 E39.33654
G1 X27.27 Y198.678 E39.3427
G1 X26.889 Y198.23 E39.38961
G1 X26.839 Y198.169 E39.3959
G1 X26.704 Y197.992 E39.41365
G1 X26.664 Y197.936 E39.41914
G1 X25.712 Y196.559 E39.55266
G1 X25.347 Y196.011 E39.60517
G1 X23.745 Y193.753 E39.82598
G1 X22.046 Y191.494 E40.05142
G1 X20.334 Y189.348 E40.27037
G1 X18.52 Y187.2 E40.49461
G1 X16.679 Y185.143 E40.71478
G1 X14.734 Y183.089 E40.94039
G1 X12.78 Y181.14 E41.16051
G1 X11.114 Y179.582 E41.34244
G1 X11.097 Y179.565 E41.34435
G1 X10.723 Y179.204 E41.38581
G1 X10.095 Y178.611 E41.4547
G1 X10.04 Y178.556 E41.4609
G1 X9.858 Y178.365 E41.48194
G1 X9.808 Y178.311 E41.48781
G1 X9.407 Y177.846 E41.53679
G1 X9.356 Y177.783 E41.54325
G1 X9.184 Y177.56 E41.56571
G1 X9.141 Y177.502 E41.57147
G1 X8.969 Y177.255 E41.59548
G1 X8.97 Y177.255 E41.59556
G1 X7.347 Y174.996 E41.81741
G1 X5.653 Y172.775 E42.04019
G1 X3.89 Y170.593 E42.26393
G1 X2.406 Y168.86 E42.4459
G1 X2.38 Y168.829 E42.44912
G1 X2.257 Y168.677 E42.46472
G1 X2.073 Y168.387 E42.49211
G1 X1.961 Y168.062 E42.51953
G1 X1.927 Y167.749 E42.54464
G1 X1.926 Y167.278 E42.5822
G1 X1.926 Y167.252 E42.58428
G1 X2.008 Y162.027 E43.00106
G1 X2.009 Y162.005 E43.00282
G1 X2.031 Y161.286 E43.06019
G1 X2.035 Y161.204 E43.06674
G1 X2.059 Y160.925 E43.08907
G1 X2.26 Y158.165 E43.30978
G1 X2.386 Y155.338 E43.53548
G1 X2.431 Y152.571 E43.75619
G1 X2.398 Y149.809 E43.9765
G1 X2.285 Y147.025 E44.19872
G1 X2.091 Y144.203 E44.42433
G1 X1.94 Y142.549 E44.55679
G1 X1.935 Y142.46 E44.5639
G1 X1.925 Y142.137 E44.58968
G1 X1.924 Y142.077 E44.59446
G1 X1.926 Y141.861 E44.61169
G1 X1.926 Y141.852 E44.61241
G1 X2.008 Y136.63 E45.02895
G1 X2.009 Y136.608 E45.03071
G1 X2.031 Y135.878 E45.08896
G1 X2.081 Y135.539 E45.11629
G1 X2.199 Y135.237 E45.14215
G1 X2.459 Y134.74 E45.18688
G1 X2.469 Y134.72 E45.18866
G1 X3.274 Y133.236 E45.32332
G1 X4.517 Y130.781 E45.54279
G1 X5.72 Y128.229 E45.76781
G1 X6.828 Y125.695 E45.98839
G1 X7.883 Y123.088 E46.21269
G1 X8.848 Y120.481 E46.43441
G1 X9.738 Y117.861 E46.6551
G1 X10.554 Y115.213 E46.87609
G1 X11.155 Y113.075 E47.05322
G1 X11.746 Y110.888 E47.23391
G1 X11.752 Y110.869 E47.23549
G1 X12.069 Y109.755 E47.32787
G1 X12.073 Y109.739 E47.32919
G1 X12.842 Y107.15 E47.54459
G1 X12.848 Y107.13 E47.54626
G1 X13.185 Y106.051 E47.63642
