; generated by PrusaSlicer 2.1.0+win64 on 2020-03-25 at 19:51:01 UTC

; 

; external perimeters extrusion width = 0.50mm
; perimeters extrusion width = 0.50mm
; infill extrusion width = 0.50mm
; solid infill extrusion width = 0.50mm
; top infill extrusion width = 0.50mm
; first layer extrusion width = 0.50mm

M73 P0 R84
M73 Q0 S85
M201 X1000 Y1000 Z1000 E5000 ; sets maximum accelerations, mm/sec^2
M203 X200 Y200 Z12 E120 ; sets maximum feedrates, mm/sec
M204 P1250 R1250 T1250 ; sets acceleration (P, T) and retract acceleration (R), mm/sec^2
M205 X8.00 Y8.00 Z0.40 E1.50 ; sets the jerk limits, mm/sec
M205 S0 T0 ; sets the minimum extruding and travel feed rate, mm/sec
M107
M862.3 P "MK3S" ; printer model check
M862.1 P0.4 ; nozzle diameter check
M115 U3.8.1 ; tell printer latest fw version
G90 ; use absolute coordinates
M83 ; extruder relative mode
M104 S220 ; set extruder temp
M140 S60 ; set bed temp
M190 S60 ; wait for bed temp
M109 S220 ; wait for extruder temp
G28 W ; home all without mesh bed level
G80 ; mesh bed leveling
G1 Y-3.0 F1000.0 ; go outside print area
G92 E0.0
G1 X60.0 E9.0 F1000.0 ; intro line
M73 Q0 S85
M73 P0 R84
G1 X100.0 E12.5 F1000.0 ; intro line
G92 E0.0
M221 S95
G21 ; set units to millimeters
G90 ; use absolute coordinates
M83 ; use relative distances for extrusion
M900 K30 ; Filament gcode
;BEFORE_LAYER_CHANGE
G92 E0.0
;0.25


G1 E-0.80000 F2100.00000
G1 Z0.600 F10800.000
;AFTER_LAYER_CHANGE
;0.25
G1 X18.736 Y78.417
G1 Z0.250
G1 E0.80000 F2100.00000
M204 S1000
G1 F1500
G1 X29.910 Y65.093 E0.80674
G1 X67.244 Y24.114 E2.57182
G1 X68.158 Y23.281 E0.05735
G1 X69.101 Y22.581 E0.05448
G1 X70.122 Y21.964 E0.05534
G1 X71.221 Y21.442 E0.05646
G1 X72.284 Y21.056 E0.05246
G1 X73.476 Y20.750 E0.05709
G1 X144.669 Y7.862 E3.35653
G1 X152.235 Y6.784 E0.35453
G1 X189.314 Y2.653 E1.73086
G1 X194.307 Y3.390 E0.23415
G1 X194.779 Y3.519 E0.02268
G1 X217.558 Y12.935 E1.14352
G1 X218.499 Y13.384 E0.04834
G1 X219.424 Y13.938 E0.05003
G1 X220.309 Y14.593 E0.05108
G1 X221.080 Y15.287 E0.04815
G1 X221.846 Y16.122 E0.05258
G1 X238.984 Y36.703 E1.24246
G1 X240.165 Y38.397 E0.09583
G1 X240.686 Y39.432 E0.05377
G1 X241.067 Y40.427 E0.04941
G1 X246.500 Y56.999 E0.80907
G1 X246.560 Y57.514 E0.02404
G1 X246.497 Y62.551 E0.23370
G1 X235.915 Y125.086 E2.94244
G1 X234.354 Y129.702 E0.22607
G1 X234.113 Y130.186 E0.02506
G1 X222.945 Y144.748 E0.85138
G1 X181.304 Y191.295 E2.89744
G1 X180.508 Y192.088 E0.05212
G1 X179.678 Y192.776 E0.05000
G1 X178.614 Y193.501 E0.05974
G1 X177.592 Y194.055 E0.05394
G1 X176.597 Y194.479 E0.05018
G1 X175.363 Y194.872 E0.06008
G1 X174.171 Y195.119 E0.05649
G1 X102.460 Y204.718 E3.35652
G1 X94.857 Y205.446 E0.35436
G1 X57.726 Y207.869 E1.72627
G1 X52.683 Y206.904 E0.23818
G1 X52.231 Y206.761 E0.02200
G1 X29.908 Y196.307 E1.14352
G1 X28.890 Y195.756 E0.05374
G1 X27.261 Y194.555 E0.09389
G1 X26.445 Y193.752 E0.05309
G1 X25.749 Y192.916 E0.05047
G1 X9.571 Y171.562 E1.24287
G1 X8.482 Y169.836 E0.09471
G1 X8.001 Y168.765 E0.05444
G1 X7.661 Y167.736 E0.05030
G1 X3.041 Y151.120 E0.80010
G1 X2.963 Y150.489 E0.02946
G1 X3.261 Y145.398 E0.23660
G1 X16.707 Y83.423 E2.94210
G1 X18.478 Y78.883 E0.22607
G1 X18.707 Y78.469 E0.02194
G1 F8640
G1 X20.820 Y75.946 E-0.76000
G1 E-0.04000 F2100.00000
G1 Z0.850 F10800.000
G1 X55.219 Y203.766
G1 Z0.250
G1 E0.80000 F2100.00000
G1 F750
G1 X56.166 Y203.948 E0.04475
G1 X56.124 Y204.159 E0.00998
G1 X55.178 Y203.970 E0.04475
G1 X55.207 Y203.825 E0.00687
G1 F8640
G1 X56.166 Y203.948 E-0.22327
G1 X56.124 Y204.159 E-0.04967
G1 X55.178 Y203.970 E-0.22273
G1 X55.207 Y203.825 E-0.03422
G1 E-0.27011 F2100.00000
G1 Z0.850 F10800.000
G1 X11.174 Y162.411
G1 Z0.250
G1 E0.80000 F2100.00000
G1 F1350
G1 X11.758 Y166.163 E0.17618
G1 X11.983 Y166.971 E0.03889
G1 X12.305 Y167.747 E0.03899
G1 X12.720 Y168.478 E0.03898
G1 X13.221 Y169.152 E0.03898
G1 X13.798 Y169.757 E0.03878
G1 X14.452 Y170.295 E0.03928
G1 X15.160 Y170.743 E0.03890
G1 X15.920 Y171.103 E0.03898
G1 X16.727 Y171.370 E0.03945
G1 X18.525 Y171.706 E0.08483
G1 X19.500 Y171.966 E0.04685
G1 X20.446 Y172.304 E0.04658
G1 X21.360 Y172.718 E0.04658
G1 X22.238 Y173.207 E0.04658
G1 X23.071 Y173.767 E0.04658
G1 X23.856 Y174.394 E0.04658
G1 X24.586 Y175.083 E0.04658
G1 X25.256 Y175.831 E0.04658
G1 X25.862 Y176.631 E0.04658
G1 X26.401 Y177.479 E0.04658
G1 X26.867 Y178.368 E0.04658
G1 X27.258 Y179.293 E0.04658
G1 X27.571 Y180.247 E0.04658
G1 X27.804 Y181.224 E0.04658
G1 X27.956 Y182.216 E0.04658
G1 X28.025 Y183.218 E0.04658
G1 X28.011 Y184.229 E0.04690
G1 X27.847 Y186.086 E0.08649
G1 X27.895 Y186.974 E0.04128
G1 X28.053 Y187.827 E0.04024
G1 X28.224 Y188.388 E0.02721
G1 X28.333 Y188.696 E0.01514
G1 X28.696 Y189.469 E0.03964
G1 X29.157 Y190.192 E0.03979
G1 X29.548 Y190.687 E0.02925
G1 X30.156 Y191.301 E0.04009
G1 X30.849 Y191.841 E0.04075
G1 X31.605 Y192.288 E0.04075
G1 X32.374 Y192.619 E0.03884
G1 X36.028 Y193.869 E0.17915
G1 X39.673 Y195.014 E0.17725
G1 X43.345 Y196.068 E0.17725
G1 X47.043 Y197.030 E0.17725
G1 X50.763 Y197.899 E0.17725
G1 X54.504 Y198.675 E0.17725
G1 X58.264 Y199.358 E0.17725
G1 X62.039 Y199.946 E0.17725
G1 X65.827 Y200.439 E0.17725
G1 X69.627 Y200.838 E0.17725
G1 X73.436 Y201.141 E0.17725
G1 X77.251 Y201.350 E0.17725
G1 X81.070 Y201.463 E0.17725
G1 X84.891 Y201.480 E0.17725
G1 X88.710 Y201.402 E0.17725
G1 X92.527 Y201.228 E0.17725
G1 X96.338 Y200.960 E0.17725
G1 X100.142 Y200.596 E0.17725
G1 X103.935 Y200.137 E0.17725
G1 X107.715 Y199.583 E0.17725
G1 X111.480 Y198.935 E0.17725
G1 X115.228 Y198.193 E0.17725
G1 X118.957 Y197.358 E0.17725
G1 X122.663 Y196.430 E0.17725
G1 X126.345 Y195.409 E0.17725
G1 X130.000 Y194.297 E0.17725
G1 X133.626 Y193.094 E0.17725
G1 X137.221 Y191.801 E0.17725
G1 X140.783 Y190.418 E0.17725
G1 X144.309 Y188.946 E0.17725
G1 X147.797 Y187.387 E0.17725
G1 X151.245 Y185.741 E0.17725
G1 X154.651 Y184.010 E0.17725
G1 X158.012 Y182.194 E0.17725
G1 X161.327 Y180.294 E0.17725
G1 X164.594 Y178.312 E0.17725
G1 X167.769 Y176.276 E0.17499
G1 X168.495 Y175.847 E0.03912
G1 X169.215 Y175.511 E0.03686
G1 X169.964 Y175.247 E0.03686
G1 X170.736 Y175.058 E0.03686
G1 X171.522 Y174.945 E0.03686
G1 X172.316 Y174.909 E0.03686
G1 X173.109 Y174.950 E0.03686
G1 X173.904 Y175.070 E0.03729
G1 X174.117 Y175.122 E0.01016
G1 X174.661 Y175.262 E0.02607
G1 X175.413 Y175.533 E0.03706
G1 X176.130 Y175.874 E0.03686
G1 X176.811 Y176.283 E0.03686
G1 X177.449 Y176.757 E0.03686
G1 X178.038 Y177.290 E0.03686
G1 X178.583 Y177.891 E0.03764
G1 X178.715 Y178.062 E0.01000
G1 X179.041 Y178.510 E0.02572
G1 X179.454 Y179.198 E0.03722
G1 X179.795 Y179.915 E0.03685
G1 X180.064 Y180.663 E0.03685
G1 X180.302 Y181.664 E0.04775
G1 X180.377 Y182.208 E0.02547
G1 X180.420 Y183.011 E0.03733
G1 X180.384 Y183.805 E0.03685
G1 X180.226 Y184.812 E0.04731
G1 X180.006 Y185.603 E0.03809
G1 X179.719 Y186.344 E0.03685
G1 X179.362 Y187.054 E0.03685
G1 X178.931 Y187.733 E0.03731
G1 X178.463 Y188.336 E0.03541
G1 X177.901 Y188.927 E0.03784
G1 X177.300 Y189.447 E0.03686
G1 X176.652 Y189.905 E0.03686
G1 X175.961 Y190.299 E0.03686
G1 X175.236 Y190.622 E0.03686
G1 X174.482 Y190.874 E0.03686
G1 X173.708 Y191.051 E0.03686
G1 X172.920 Y191.151 E0.03686
G1 X172.126 Y191.174 E0.03686
G1 X171.333 Y191.120 E0.03686
G1 X170.549 Y190.988 E0.03686
G1 X169.783 Y190.781 E0.03686
G1 X169.039 Y190.500 E0.03686
G1 X168.327 Y190.147 E0.03686
G1 X167.653 Y189.727 E0.03686
G1 X167.023 Y189.243 E0.03686
G1 X166.443 Y188.700 E0.03686
G1 X165.919 Y188.103 E0.03686
G1 X165.474 Y187.482 E0.03544
G1 X165.440 Y187.368 E0.00551
G1 X165.498 Y187.275 E0.00509
G1 X165.585 Y187.255 E0.00412
G1 X165.652 Y187.286 E0.00345
G1 X166.253 Y188.089 E0.04652
G1 X166.908 Y188.782 E0.04423
G1 X167.646 Y189.394 E0.04451
G1 X168.454 Y189.912 E0.04451
G1 X169.319 Y190.327 E0.04451
G1 X170.227 Y190.635 E0.04450
G1 X171.161 Y190.828 E0.04424
G1 X171.801 Y190.885 E0.02981
G1 X172.136 Y190.907 E0.01557
G1 X173.081 Y190.869 E0.04389
G1 X174.028 Y190.714 E0.04450
G1 X174.949 Y190.445 E0.04450
G1 X175.830 Y190.066 E0.04450
G1 X176.658 Y189.582 E0.04450
G1 X177.422 Y189.001 E0.04450
G1 X178.109 Y188.332 E0.04450
G1 X178.709 Y187.584 E0.04450
G1 X179.214 Y186.769 E0.04450
G1 X179.616 Y185.898 E0.04449
G1 X179.904 Y184.999 E0.04379
G1 X180.047 Y184.317 E0.03231
G1 X180.145 Y183.378 E0.04379
G1 X180.128 Y182.420 E0.04449
G1 X179.998 Y181.497 E0.04323
G1 X179.741 Y180.532 E0.04631
G1 X179.386 Y179.654 E0.04394
G1 X178.921 Y178.815 E0.04450
G1 X178.357 Y178.039 E0.04450
G1 X177.703 Y177.337 E0.04450
G1 X176.969 Y176.721 E0.04450
G1 X176.177 Y176.206 E0.04381
G1 X175.297 Y175.774 E0.04550
G1 X174.396 Y175.463 E0.04420
G1 X173.458 Y175.263 E0.04450
G1 X172.502 Y175.178 E0.04450
G1 X171.543 Y175.211 E0.04451
G1 X170.600 Y175.359 E0.04430
G1 X170.281 Y175.448 E0.01539
G1 X169.671 Y175.623 E0.02940
G1 X168.789 Y175.996 E0.04442
G1 X168.008 Y176.445 E0.04180
G1 X164.813 Y178.496 E0.17612
G1 X161.619 Y180.437 E0.17342
G1 X158.378 Y182.301 E0.17342
G1 X155.093 Y184.084 E0.17342
G1 X151.765 Y185.787 E0.17342
G1 X148.397 Y187.408 E0.17342
G1 X144.990 Y188.946 E0.17342
G1 X141.546 Y190.401 E0.17342
G1 X138.068 Y191.772 E0.17342
G1 X134.558 Y193.057 E0.17345
G1 X133.459 Y193.429 E0.05382
G1 X131.018 Y194.255 E0.11957
G1 X127.448 Y195.368 E0.17343
G1 X123.853 Y196.392 E0.17342
G1 X120.234 Y197.329 E0.17342
G1 X116.594 Y198.177 E0.17342
G1 X112.933 Y198.936 E0.17342
G1 X109.256 Y199.605 E0.17342
G1 X105.563 Y200.185 E0.17342
G1 X101.856 Y200.674 E0.17342
G1 X98.140 Y201.072 E0.17342
G1 X94.414 Y201.380 E0.17342
G1 X90.681 Y201.596 E0.17347
G1 X86.947 Y201.722 E0.17336
G1 X83.208 Y201.756 E0.17345
G1 X79.470 Y201.699 E0.17342
G1 X75.735 Y201.550 E0.17342
G1 X72.005 Y201.311 E0.17342
G1 X68.281 Y200.980 E0.17342
G1 X64.567 Y200.559 E0.17342
G1 X60.864 Y200.048 E0.17342
G1 X56.110 Y199.272 E0.22345
G1 X51.692 Y198.379 E0.20910
G1 X48.416 Y197.641 E0.15580
G1 X45.158 Y196.833 E0.15572
G1 X41.917 Y195.952 E0.15583
G1 X38.696 Y195.001 E0.15578
G1 X35.497 Y193.980 E0.15578
G1 X32.352 Y192.899 E0.15429
G1 X31.640 Y192.603 E0.03575
G1 X31.004 Y192.259 E0.03356
G1 X30.397 Y191.844 E0.03410
G1 X29.693 Y191.230 E0.04337
G1 X29.336 Y190.850 E0.02417
G1 X28.863 Y190.246 E0.03560
G1 X28.383 Y189.448 E0.04323
G1 X28.079 Y188.781 E0.03396
G1 X27.843 Y188.081 E0.03426
G1 X27.686 Y187.388 E0.03300
G1 X27.597 Y186.646 E0.03464
G1 X27.585 Y185.916 E0.03387
G1 X27.749 Y184.090 E0.08507
G1 X27.748 Y182.995 E0.05082
G1 X27.646 Y181.902 E0.05091
G1 X27.443 Y180.824 E0.05091
G1 X27.142 Y179.768 E0.05091
G1 X26.744 Y178.746 E0.05091
G1 X26.253 Y177.764 E0.05091
G1 X25.674 Y176.832 E0.05091
G1 X25.012 Y175.957 E0.05091
G1 X24.271 Y175.148 E0.05091
G1 X23.459 Y174.410 E0.05091
G1 X22.582 Y173.750 E0.05091
G1 X21.648 Y173.174 E0.05091
G1 X20.665 Y172.687 E0.05091
G1 X19.641 Y172.293 E0.05091
G1 X18.586 Y171.996 E0.05082
G1 X16.788 Y171.660 E0.08487
G1 X16.092 Y171.453 E0.03369
G1 X15.419 Y171.175 E0.03378
G1 X14.778 Y170.829 E0.03378
G1 X14.175 Y170.420 E0.03378
G1 X13.618 Y169.952 E0.03378
G1 X12.980 Y169.279 E0.04299
G1 X12.531 Y168.673 E0.03502
G1 X12.159 Y168.047 E0.03378
G1 X11.851 Y167.382 E0.03399
G1 X11.619 Y166.707 E0.03310
G1 X11.452 Y165.988 E0.03426
G1 X11.356 Y165.234 E0.03527
G1 X11.178 Y162.471 E0.12844
G1 X11.121 Y161.590 F10800.000
G1 F1350
G1 X10.952 Y157.663 E0.18236
G1 X10.874 Y153.857 E0.17661
G1 X10.882 Y148.679 E0.24022
G1 X11.095 Y143.340 E0.24788
G1 X11.347 Y139.338 E0.18604
G1 X11.692 Y135.343 E0.18604
G1 X12.129 Y131.357 E0.18604
G1 X12.659 Y127.382 E0.18604
G1 X13.280 Y123.420 E0.18604
G1 X13.993 Y119.474 E0.18604
G1 X14.797 Y115.546 E0.18604
G1 X15.692 Y111.637 E0.18604
G1 X16.678 Y107.750 E0.18604
G1 X17.753 Y103.886 E0.18604
G1 X18.917 Y100.049 E0.18604
G1 X20.170 Y96.240 E0.18604
G1 X21.510 Y92.461 E0.18604
G1 X22.938 Y88.713 E0.18604
G1 X24.956 Y83.766 E0.24787
G1 X27.093 Y79.049 E0.24022
G1 X28.739 Y75.617 E0.17661
G1 X30.461 Y72.222 E0.17661
G1 X30.822 Y71.549 E0.03542
G1 X36.964 Y70.219 E0.29156
G1 X37.212 Y70.186 E0.01163
G1 X37.459 Y70.196 E0.01146
G1 X37.704 Y70.248 E0.01163
G1 X46.014 Y72.736 E0.40241
G1 X46.180 Y72.800 E0.00827
G1 X46.369 Y72.931 E0.01066
G1 X46.479 Y73.070 E0.00822
G1 X46.583 Y73.331 E0.01305
G1 X46.594 Y73.446 E0.00535
G1 X46.577 Y73.606 E0.00747
G1 X44.589 Y75.721 E0.13463
G1 X42.625 Y77.935 E0.13731
G1 X40.733 Y80.216 E0.13747
M73 Q1 S84
G1 X38.918 Y82.557 E0.13747
G1 X37.181 Y84.958 E0.13747
G1 X35.523 Y87.415 E0.13747
G1 X33.949 Y89.925 E0.13747
G1 X32.457 Y92.485 E0.13747
M73 P1 R83
G1 X31.051 Y95.094 E0.13747
G1 X29.733 Y97.747 E0.13747
G1 X28.502 Y100.443 E0.13747
G1 X27.361 Y103.178 E0.13747
G1 X26.311 Y105.949 E0.13747
G1 X25.354 Y108.753 E0.13747
G1 X24.489 Y111.587 E0.13747
G1 X23.718 Y114.448 E0.13747
G1 X23.043 Y117.333 E0.13747
G1 X22.463 Y120.239 E0.13747
G1 X21.979 Y123.163 E0.13747
G1 X21.593 Y126.101 E0.13747
G1 X21.303 Y129.050 E0.13747
G1 X21.111 Y132.007 E0.13747
G1 X21.017 Y134.968 E0.13747
G1 X21.020 Y137.932 E0.13747
G1 X21.122 Y140.893 E0.13747
G1 X21.321 Y143.850 E0.13747
G1 X21.618 Y146.798 E0.13747
G1 X22.012 Y149.735 E0.13747
G1 X22.503 Y152.657 E0.13747
G1 X23.090 Y155.561 E0.13747
G1 X23.773 Y158.445 E0.13747
G1 X24.551 Y161.304 E0.13747
G1 X25.421 Y164.133 E0.13731
G1 X26.354 Y166.881 E0.13463
G1 X26.304 Y167.034 E0.00747
G1 X26.173 Y167.223 E0.01066
G1 X25.991 Y167.363 E0.01066
G1 X25.774 Y167.439 E0.01066
G1 X25.461 Y167.437 E0.01454
G1 X16.881 Y166.262 E0.40176
G1 X16.651 Y166.214 E0.01089
G1 X16.382 Y166.097 E0.01364
G1 X16.126 Y165.916 E0.01452
G1 X11.166 Y161.630 E0.30412
G1 F8640
G1 X10.988 Y158.343 E-0.76000
G1 E-0.04000 F2100.00000
G1 Z0.850 F10800.000
G1 X31.573 Y70.145
G1 Z0.250
G1 E0.80000 F2100.00000
G1 F1350
G1 X32.243 Y68.894 E0.06581
G1 X32.642 Y68.247 E0.03527
G1 X33.086 Y67.670 E0.03379
G1 X33.587 Y67.141 E0.03378
G1 X34.139 Y66.666 E0.03378
G1 X34.736 Y66.250 E0.03378
G1 X35.397 Y65.884 E0.03502
G1 X36.256 Y65.536 E0.04299
G1 X36.965 Y65.338 E0.03416
G1 X37.656 Y65.219 E0.03255
G1 X38.401 Y65.169 E0.03464
G1 X39.129 Y65.195 E0.03378
G1 X39.848 Y65.294 E0.03369
G1 X41.624 Y65.733 E0.08487
G1 X42.707 Y65.899 E0.05082
G1 X43.803 Y65.965 E0.05091
G1 X44.899 Y65.929 E0.05091
G1 X45.988 Y65.791 E0.05091
G1 X47.059 Y65.554 E0.05091
G1 X48.104 Y65.219 E0.05091
G1 X49.114 Y64.789 E0.05091
G1 X50.079 Y64.267 E0.05091
G1 X50.992 Y63.658 E0.05091
G1 X51.845 Y62.968 E0.05091
G1 X52.631 Y62.202 E0.05091
G1 X53.342 Y61.366 E0.05091
G1 X53.973 Y60.469 E0.05091
G1 X54.519 Y59.516 E0.05091
G1 X54.973 Y58.520 E0.05081
G1 X55.581 Y56.790 E0.08507
G1 X55.894 Y56.130 E0.03387
G1 X56.274 Y55.505 E0.03397
G1 X56.717 Y54.921 E0.03397
G1 X57.217 Y54.386 E0.03397
G1 X57.769 Y53.906 E0.03396
G1 X58.537 Y53.378 E0.04323
G1 X59.210 Y53.027 E0.03521
G1 X59.890 Y52.757 E0.03397
G1 X60.595 Y52.559 E0.03397
G1 X61.317 Y52.433 E0.03397
G1 X62.047 Y52.382 E0.03397
G1 X62.811 Y52.408 E0.03546
G1 X66.122 Y52.727 E0.15430
G1 X69.457 Y53.122 E0.15581
G1 X70.479 Y53.265 E0.04788
G1 X72.781 Y53.590 E0.10787
G1 X76.096 Y54.131 E0.15580
G1 X79.398 Y54.744 E0.15584
G1 X82.684 Y55.430 E0.15571
G1 X87.076 Y56.447 E0.20913
G1 X91.724 Y57.709 E0.22345
G1 X95.306 Y58.777 E0.17342
G1 X98.861 Y59.932 E0.17342
G1 X102.387 Y61.173 E0.17342
G1 X105.882 Y62.500 E0.17342
G1 X109.343 Y63.912 E0.17342
G1 X112.769 Y65.408 E0.17342
G1 X116.158 Y66.988 E0.17345
G1 X119.505 Y68.649 E0.17336
G1 X122.813 Y70.392 E0.17347
G1 X126.077 Y72.214 E0.17342
G1 X129.295 Y74.116 E0.17342
G1 X132.466 Y76.096 E0.17342
G1 X135.587 Y78.153 E0.17342
G1 X138.658 Y80.286 E0.17342
G1 X141.675 Y82.492 E0.17342
G1 X144.638 Y84.772 E0.17342
G1 X147.544 Y87.123 E0.17342
G1 X150.391 Y89.545 E0.17342
G1 X153.180 Y92.035 E0.17343
G1 X155.060 Y93.798 E0.11957
G1 X155.905 Y94.592 E0.05382
G1 X158.569 Y97.216 E0.17345
G1 X161.167 Y99.904 E0.17342
G1 X163.699 Y102.654 E0.17342
G1 X166.163 Y105.465 E0.17342
G1 X168.557 Y108.336 E0.17342
G1 X170.881 Y111.264 E0.17342
G1 X173.133 Y114.248 E0.17342
G1 X175.311 Y117.286 E0.17342
G1 X177.414 Y120.376 E0.17342
G1 X179.473 Y123.566 E0.17612
G1 X179.998 Y124.298 E0.04180
G1 X180.646 Y125.002 E0.04442
