;START_OF_HEADER
;HEADER_VERSION:0.1
;FLAVOR:Griffin
;GENERATOR.NAME:Cura_SteamEngine
;GENERATOR.VERSION:4.4.0
;GENERATOR.BUILD_DATE:2019-11-19
;TARGET_MACHINE.NAME:Ultimaker 3
;EXTRUDER_TRAIN.0.INITIAL_TEMPERATURE:230
;EXTRUDER_TRAIN.0.MATERIAL.VOLUME_USED:24710
;EXTRUDER_TRAIN.0.MATERIAL.GUID:0e01be8c-e425-4fb1-b4a3-b79f255f1db9
;EXTRUDER_TRAIN.0.NOZZLE.DIAMETER:0.8
;EXTRUDER_TRAIN.0.NOZZLE.NAME:AA 0.8
;BUILD_PLATE.TYPE:glass
;BUILD_PLATE.INITIAL_TEMPERATURE:60
;PRINT.TIME:2540
;PRINT.GROUPS:1
;PRINT.SIZE.MIN.X:1.264
;PRINT.SIZE.MIN.Y:6
;PRINT.SIZE.MIN.Z:0.53
;PRINT.SIZE.MAX.X:214.247
;PRINT.SIZE.MAX.Y:211.667
;PRINT.SIZE.MAX.Z:4.82
;END_OF_HEADER
;Generated with Cura_SteamEngine 4.4.0
T0
M82 ;absolute extrusion mode

G92 E0
M109 S230
G0 F15000 X9 Y6 Z2
G280
G1 F1500 E-6.5
;LAYER_COUNT:14
;LAYER:0
M107
M204 S625
M205 X30 Y30
G0 F6000 X40.512 Y32.802 Z0.53
M204 S500
M205 X25 Y25
;TYPE:SKIRT
G1 F900 E0
G1 F1200 X41.144 Y32.136 E0.07323
G1 X41.245 Y32.04 E0.08434
G1 X41.973 Y31.405 E0.16139
G1 X42.088 Y31.314 E0.17309
G1 X42.866 Y30.76 E0.24926
G1 X42.986 Y30.683 E0.26063
G1 X43.824 Y30.201 E0.33774
G1 X43.955 Y30.134 E0.34947
G1 X44.838 Y29.737 E0.42669
G1 X44.969 Y29.686 E0.4379
G1 X45.847 Y29.388 E0.51185
G1 X45.987 Y29.348 E0.52346
G1 X46.943 Y29.125 E0.60176
G1 X47.073 Y29.1 E0.61231
G1 X47.486 Y29.042 E0.64558
G1 X47.486 Y29.043 E0.64566
G1 X50.247 Y28.649 E0.8681
G1 X53.021 Y28.173 E1.09257
G1 X55.747 Y27.626 E1.31433
G1 X58.431 Y27.009 E1.53398
G1 X61.152 Y26.3 E1.75824
G1 X63.811 Y25.528 E1.97907
G1 X66.487 Y24.666 E2.2033
G1 X69.116 Y23.738 E2.42566
G1 X71.718 Y22.736 E2.64804
G1 X74.265 Y21.67 E2.86826
G1 X76.824 Y20.514 E3.09221
G1 X79.321 Y19.3 E3.31366
G1 X81.795 Y18.009 E3.53622
G1 X84.235 Y16.647 E3.7591
G1 X86.617 Y15.227 E3.98027
G1 X88.975 Y13.729 E4.20308
G1 X91.464 Y12.045 E4.44276
G1 X91.769 Y11.887 E4.47016
G1 X91.992 Y11.822 E4.48868
G1 X92.276 Y11.763 E4.51182
G1 X92.341 Y11.751 E4.51709
G1 X94.84 Y11.348 E4.71898
G1 X94.863 Y11.344 E4.72084
G1 X95.565 Y11.242 E4.77742
G1 X95.979 Y11.241 E4.81044
G1 X96.312 Y11.287 E4.83725
G1 X96.312 Y11.286 E4.83733
G1 X99.12 Y11.635 E5.06301
G1 X101.852 Y11.897 E5.2819
G1 X104.66 Y12.086 E5.50637
G1 X107.437 Y12.193 E5.72802
G1 X110.218 Y12.223 E5.94983
G1 X113.029 Y12.173 E6.17406
G1 X115.769 Y12.047 E6.39283
G1 X118.937 Y11.806 E6.64623
G1 X120.232 Y11.7 E6.74986
G1 X120.251 Y11.699 E6.75138
G1 X123.157 Y11.498 E6.9837
G1 X123.175 Y11.496 E6.98515
G1 X124.313 Y11.431 E7.07606
G1 X124.328 Y11.431 E7.07725
G1 X127.154 Y11.3 E7.30289
G1 X127.172 Y11.299 E7.30433
G1 X128.395 Y11.257 E7.40193
G1 X128.412 Y11.256 E7.40328
G1 X131.242 Y11.191 E7.62906
G1 X131.258 Y11.191 E7.63033
G1 X132.417 Y11.177 E7.72278
G1 X135.298 Y11.177 E7.95256
G1 X136.515 Y11.191 E8.04963
G1 X136.532 Y11.191 E8.05098
G1 X139.34 Y11.255 E8.275
G1 X139.357 Y11.256 E8.27636
G1 X140.604 Y11.299 E8.37587
G1 X140.622 Y11.3 E8.37731
G1 X143.397 Y11.429 E8.59887
G1 X143.412 Y11.429 E8.60007
G1 X144.61 Y11.497 E8.69577
G1 X144.628 Y11.499 E8.69722
G1 X147.474 Y11.696 E8.92475
G1 X147.492 Y11.697 E8.92619
G1 X149.194 Y11.835 E9.06238
G1 X151.557 Y12.021 E9.25143
G1 X154.333 Y12.16 E9.47311
G1 X157.148 Y12.221 E9.69768
G1 X159.926 Y12.203 E9.91924
G1 X162.707 Y12.106 E10.14118
G1 X165.477 Y11.931 E10.36255
G1 X168.266 Y11.675 E10.58593
G1 X171.625 Y11.261 E10.85586
G1 X171.766 Y11.241 E10.86721
G1 X172.181 Y11.242 E10.90031
G1 X172.888 Y11.344 E10.95729
G1 X172.912 Y11.348 E10.95923
G1 X175.035 Y11.689 E11.13072
G1 X175.056 Y11.692 E11.13241
G1 X175.699 Y11.805 E11.18448
G1 X176.028 Y11.904 E11.21188
G1 X176.375 Y12.113 E11.24419
G1 X177.861 Y13.316 E11.39668
G1 X180.053 Y15.033 E11.61875
G1 X182.305 Y16.696 E11.84203
G1 X184.573 Y18.272 E12.06231
G1 X186.219 Y19.36 E12.21967
G1 X186.852 Y19.769 E12.27978
G1 X186.908 Y19.807 E12.28518
G1 X187.259 Y20.057 E12.31955
G1 X187.329 Y20.11 E12.32655
G1 X188.005 Y20.655 E12.39581
G1 X188.083 Y20.723 E12.40406
G1 X188.393 Y21.011 E12.43781
G1 X188.461 Y21.077 E12.44536
G1 X188.908 Y21.549 E12.49721
G1 X188.969 Y21.618 E12.50456
G1 X189.136 Y21.818 E12.52534
G1 X189.174 Y21.866 E12.53022
G1 X189.547 Y22.352 E12.57908
G1 X189.596 Y22.419 E12.5857
G1 X191.039 Y24.534 E12.78991
G1 X192.654 Y26.787 E13.011
G1 X194.33 Y28.992 E13.2319
G1 X196.104 Y31.194 E13.45743
G1 X197.886 Y33.281 E13.6763
G1 X199.77 Y35.365 E13.90037
G1 X201.704 Y37.387 E14.12353
G1 X203.68 Y39.339 E14.34506
G1 X205.176 Y40.73 E14.50798
G1 X205.189 Y40.742 E14.50939
G1 X205.883 Y41.403 E14.58583
G1 X205.927 Y41.448 E14.59085
G1 X206.331 Y41.867 E14.63727
G1 X206.393 Y41.934 E14.64455
G1 X206.6 Y42.177 E14.67001
G1 X206.637 Y42.223 E14.67472
G1 X206.987 Y42.669 E14.71994
G1 X207.034 Y42.732 E14.72621
G1 X207.204 Y42.974 E14.7498
G1 X207.241 Y43.03 E14.75515
G1 X207.559 Y43.529 E14.80234
G1 X207.604 Y43.604 E14.80932
G1 X207.742 Y43.852 E14.83195
G1 X207.771 Y43.906 E14.83684
G1 X207.964 Y44.289 E14.87105
G1 X208.004 Y44.377 E14.87876
G1 X208.347 Y45.185 E14.94877
G1 X208.385 Y45.283 E14.95715
G1 X208.542 Y45.741 E14.99577
G1 X208.57 Y45.834 E15.00351
G1 X208.722 Y46.395 E15.04987
G1 X208.739 Y46.461 E15.0553
G1 X208.803 Y46.749 E15.07883
G1 X208.819 Y46.835 E15.08581
G1 X208.892 Y47.289 E15.12249
G1 X208.898 Y47.327 E15.12555
G1 X209.033 Y48.331 E15.20635
G1 X209.036 Y48.355 E15.20828
G1 X209.295 Y50.556 E15.38504
G1 X209.297 Y50.575 E15.38656
G1 X209.424 Y51.785 E15.4836
G1 X209.426 Y51.802 E15.48496
G1 X209.713 Y54.896 E15.73279
G1 X209.712 Y54.896 E15.73287
G1 X209.921 Y57.073 E15.9073
G1 X210.268 Y59.87 E16.13209
G1 X210.687 Y62.613 E16.3534
G1 X211.185 Y65.353 E16.57551
G1 X211.756 Y68.061 E16.79624
G1 X212.408 Y70.767 E17.01824
G1 X213.142 Y73.479 E17.24232
G1 X213.953 Y76.166 E17.46618
G1 X214.063 Y76.505 E17.4946
G1 X214.071 Y76.53 E17.4967
G1 X214.175 Y76.87 E17.52505
G1 X214.24 Y77.272 E17.55753
G1 X214.247 Y77.61 E17.58449
G1 X214.247 Y77.665 E17.58888
G1 X214.207 Y80.136 E17.78599
G1 X214.206 Y80.157 E17.78766
G1 X214.184 Y80.881 E17.84543
G1 X214.134 Y81.221 E17.87284
G1 X214.035 Y81.485 E17.89533
G1 X213.417 Y82.753 E18.00783
G1 X212.212 Y85.312 E18.23343
G1 X211.104 Y87.846 E18.45401
G1 X210.041 Y90.477 E18.68033
G1 X209.1 Y93.023 E18.89681
G1 X208.191 Y95.702 E19.12245
G1 X207.372 Y98.364 E19.34458
G1 X206.627 Y101.051 E19.56697
G1 X206.184 Y102.81 E19.71164
G1 X205.924 Y103.883 E19.7997
G1 X205.923 Y103.888 E19.80011
G1 X205.404 Y106.002 E19.97372
G1 X205.4 Y106.017 E19.97496
G1 X205.136 Y107.044 E20.05953
G1 X205.132 Y107.06 E20.06085
G1 X204.949 Y107.742 E20.11716
G1 X204.948 Y107.747 E20.11757
G1 X204.418 Y109.695 E20.27858
G1 X204.414 Y109.71 E20.27982
G1 X204.107 Y110.792 E20.36953
G1 X204.101 Y110.811 E20.37111
G1 X203.33 Y113.398 E20.58641
G1 X203.324 Y113.42 E20.58823
G1 X202.759 Y115.213 E20.73817
G1 X202.754 Y115.226 E20.73928
G1 X202.166 Y117.031 E20.89069
G1 X202.161 Y117.048 E20.8921
G1 X201.756 Y118.244 E20.99281
G1 X201.75 Y118.261 E20.99425
G1 X200.895 Y120.685 E21.19925
G1 X200.889 Y120.702 E21.20069
G1 X200.448 Y121.905 E21.30288
G1 X200.441 Y121.922 E21.30435
G1 X199.528 Y124.322 E21.50915
G1 X199.522 Y124.339 E21.51058
G1 X199.07 Y125.484 E21.60876
G1 X199.063 Y125.502 E21.6103
G1 X198.071 Y127.926 E21.8192
G1 X198.064 Y127.941 E21.82052
G1 X197.603 Y129.032 E21.91498
G1 X197.595 Y129.05 E21.91655
G1 X196.536 Y131.465 E22.12687
G1 X196.529 Y131.482 E22.12834
G1 X196.04 Y132.561 E22.22282
G1 X196.033 Y132.577 E22.22421
G1 X194.92 Y134.956 E22.43369
G1 X194.912 Y134.972 E22.43512
G1 X194.386 Y136.062 E22.53165
G1 X194.379 Y136.077 E22.53297
G1 X194.105 Y136.629 E22.58212
G1 X194.103 Y136.633 E22.58247
G1 X193.214 Y138.412 E22.74109
G1 X193.207 Y138.426 E22.74234
G1 X192.637 Y139.536 E22.84186
G1 X192.628 Y139.553 E22.84339
G1 X191.419 Y141.835 E23.04936
G1 X191.41 Y141.851 E23.05083
G1 X190.809 Y142.953 E23.15094
G1 X190.8 Y142.97 E23.15248
G1 X189.962 Y144.46 E23.28882
G1 X188.641 Y146.889 E23.50934
G1 X187.368 Y149.396 E23.73359
G1 X186.17 Y151.931 E23.95722
G1 X185.068 Y154.444 E24.17607
G1 X183.994 Y157.093 E24.40405
G1 X183.048 Y159.637 E24.62053
G1 X182.149 Y162.276 E24.84288
G1 X181.319 Y164.958 E25.0668
G1 X180.565 Y167.662 E25.29069
G1 X179.903 Y170.326 E25.50962
G1 X179.292 Y173.113 E25.73718
G1 X178.781 Y175.825 E25.95729
G1 X178.348 Y178.538 E26.17641
G1 X177.982 Y181.323 E26.40044
G1 X177.74 Y183.712 E26.59196
G1 X177.738 Y183.737 E26.59396
G1 X177.693 Y184.117 E26.62448
G1 X177.678 Y184.212 E26.63215
G1 X177.524 Y185.046 E26.69979
G1 X177.494 Y185.177 E26.71051
G1 X177.23 Y186.118 E26.78846
G1 X177.185 Y186.253 E26.7998
G1 X176.847 Y187.124 E26.87432
G1 X176.788 Y187.256 E26.88585
G1 X176.346 Y188.132 E26.96411
G1 X176.274 Y188.259 E26.97575
G1 X175.768 Y189.055 E27.05098
G1 X175.687 Y189.17 E27.0622
G1 X175.11 Y189.911 E27.1371
G1 X175.019 Y190.018 E27.14831
G1 X174.371 Y190.705 E27.22363
G1 X174.265 Y190.806 E27.2353
G1 X173.518 Y191.455 E27.31423
G1 X173.406 Y191.543 E27.32559
G1 X172.658 Y192.076 E27.39884
G1 X172.536 Y192.155 E27.41043
G1 X171.675 Y192.649 E27.48961
G1 X171.546 Y192.714 E27.50113
G1 X170.676 Y193.106 E27.57723
G1 X170.543 Y193.159 E27.58865
G1 X169.663 Y193.457 E27.66275
G1 X169.524 Y193.496 E27.67427
G1 X168.581 Y193.716 E27.7515
G1 X168.457 Y193.74 E27.76157
G1 X168.049 Y193.799 E27.79445
G1 X168.045 Y193.799 E27.79477
G1 X165.287 Y194.191 E28.01695
G1 X162.507 Y194.667 E28.2419
G1 X159.782 Y195.213 E28.46356
G1 X157.088 Y195.833 E28.68404
G1 X154.384 Y196.536 E28.90687
G1 X151.707 Y197.314 E29.12921
G1 X149.066 Y198.162 E29.35044
G1 X146.399 Y199.104 E29.57603
G1 X143.808 Y200.101 E29.79745
G1 X141.265 Y201.165 E30.01731
G1 X138.702 Y202.322 E30.24159
G1 X136.191 Y203.542 E30.46425
G1 X133.73 Y204.826 E30.68564
G1 X131.29 Y206.187 E30.90847
G1 X128.907 Y207.607 E31.12972
G1 X126.57 Y209.091 E31.35051
G1 X124.039 Y210.804 E31.59426
G1 X123.734 Y210.962 E31.62166
G1 X123.493 Y211.03 E31.64163
G1 X123.161 Y211.095 E31.66861
G1 X123.111 Y211.104 E31.67267
G1 X120.611 Y211.505 E31.87461
G1 X120.592 Y211.508 E31.87614
G1 X119.959 Y211.601 E31.92717
G1 X119.553 Y211.605 E31.95955
G1 X119.139 Y211.551 E31.99285
G1 X116.341 Y211.204 E32.21772
G1 X113.607 Y210.944 E32.43676
G1 X110.799 Y210.756 E32.66122
G1 X108.022 Y210.649 E32.88287
G1 X105.243 Y210.621 E33.10452
G1 X102.431 Y210.672 E33.32883
G1 X99.69 Y210.799 E33.54768
G1 X96.593 Y211.036 E33.79541
G1 X95.229 Y211.148 E33.90456
G1 X95.214 Y211.149 E33.90576
G1 X94.461 Y211.203 E33.96597
G1 X94.456 Y211.204 E33.96638
G1 X92.313 Y211.351 E34.1377
G1 X92.296 Y211.352 E34.13906
G1 X91.277 Y211.41 E34.22046
G1 X91.261 Y211.41 E34.22174
G1 X88.322 Y211.545 E34.45639
G1 X88.305 Y211.546 E34.45775
G1 X87.111 Y211.587 E34.55304
G1 X87.094 Y211.588 E34.55439
G1 X84.269 Y211.653 E34.77977
G1 X84.253 Y211.653 E34.78104
G1 X83.094 Y211.667 E34.87349
G1 X80.213 Y211.667 E35.10327
G1 X78.995 Y211.653 E35.20042
G1 X78.978 Y211.653 E35.20177
G1 X76.082 Y211.587 E35.43281
G1 X76.066 Y211.586 E35.43409
G1 X75.033 Y211.551 E35.51652
G1 X75.015 Y211.55 E35.51796
G1 X72.04 Y211.413 E35.75549
G1 X72.022 Y211.412 E35.75693
G1 X70.926 Y211.348 E35.84449
G1 X70.91 Y211.347 E35.84577
G1 X68 Y211.145 E36.07842
G1 X67.98 Y211.144 E36.08002
G1 X66.714 Y211.04 E36.18133
G1 X63.894 Y210.82 E36.40692
G1 X61.148 Y210.683 E36.62621
G1 X58.336 Y210.623 E36.85054
G1 X55.555 Y210.642 E37.07234
G1 X52.778 Y210.739 E37.29396
G1 X50.004 Y210.916 E37.51566
G1 X47.216 Y211.172 E37.73896
G1 X43.939 Y211.576 E38.0023
G1 X43.747 Y211.603 E38.01776
G1 X43.329 Y211.602 E38.0511
G1 X42.583 Y211.494 E38.11122
G1 X42.56 Y211.49 E38.11308
G1 X40.493 Y211.157 E38.28006
G1 X40.473 Y211.154 E38.28168
G1 X39.81 Y211.038 E38.33536
G1 X39.481 Y210.94 E38.36274
G1 X39.131 Y210.728 E38.39538
G1 X37.787 Y209.636 E38.53349
G1 X35.562 Y207.887 E38.75921
G1 X33.359 Y206.254 E38.97792
G1 X31.066 Y204.653 E39.20097
G1 X29.837 Y203.834 E39.31877
G1 X28.332 Y202.845 E39.4624
G1 X28.285 Y202.812 E39.46698
G1 X28.11 Y202.687 E39.48413
G1 X28.058 Y202.649 E39.48927
G1 X27.838 Y202.477 E39.51154
G1 X27.778 Y202.427 E39.51777
G1 X27.338 Y202.044 E39.56429
G1 X27.281 Y201.992 E39.57045
G1 X27.069 Y201.787 E39.59397
G1 X27.022 Y201.74 E39.59927
G1 X26.626 Y201.321 E39.64525
G1 X26.57 Y201.257 E39.65203
G1 X26.367 Y201.016 E39.67717
G1 X26.328 Y200.968 E39.6821
G1 X25.965 Y200.498 E39.72946
G1 X25.914 Y200.428 E39.73637
G1 X25.113 Y199.256 E39.84959
G1 X25.107 Y199.248 E39.85039
G1 X24.586 Y198.475 E39.92474
G1 X22.956 Y196.191 E40.14853
G1 X21.275 Y193.97 E40.37069
G1 X19.548 Y191.818 E40.59076
G1 X17.741 Y189.694 E40.81317
G1 X15.887 Y187.636 E41.0341
G1 X13.936 Y185.588 E41.25969
G1 X11.948 Y183.615 E41.48308
G1 X10.302 Y182.083 E41.66243
G1 X10.289 Y182.071 E41.66384
G1 X9.641 Y181.453 E41.73526
G1 X9.597 Y181.409 E41.74022
G1 X9.298 Y181.099 E41.77457
G1 X9.232 Y181.026 E41.78242
G1 X8.671 Y180.361 E41.85181
G1 X8.641 Y180.324 E41.85561
G1 X8.517 Y180.167 E41.87156
G1 X8.464 Y180.097 E41.87857
G1 X8.3 Y179.862 E41.90142
G1 X8.265 Y179.808 E41.90655
G1 X7.959 Y179.326 E41.95209
G1 X7.919 Y179.261 E41.95818
G1 X7.762 Y178.983 E41.98364
G1 X7.728 Y178.918 E41.98949
G1 X7.476 Y178.415 E42.03436
G1 X7.443 Y178.346 E42.04046
G1 X7.312 Y178.047 E42.0665
G1 X7.286 Y177.981 E42.07216
G1 X7.075 Y177.429 E42.11929
G1 X7.048 Y177.353 E42.12572
G1 X6.962 Y177.085 E42.14817
G1 X6.942 Y177.02 E42.15359
G1 X6.784 Y176.436 E42.20185
G1 X6.767 Y176.363 E42.20782
G1 X6.706 Y176.082 E42.23076
G1 X6.691 Y176.007 E42.23686
G1 X6.618 Y175.56 E42.27298
G1 X6.612 Y175.519 E42.27629
G1 X6.478 Y174.524 E42.35636
G1 X6.475 Y174.499 E42.35837
G1 X6.215 Y172.287 E42.53601
G1 X6.213 Y172.269 E42.53745
G1 X6.086 Y171.061 E42.63433
G1 X6.084 Y171.043 E42.63577
G1 X5.797 Y167.948 E42.88368
G1 X5.798 Y167.948 E42.88376
G1 X5.59 Y165.784 E43.05715
G1 X5.243 Y162.977 E43.28273
G1 X4.822 Y160.222 E43.50501
G1 X4.332 Y157.521 E43.72395
G1 X3.752 Y154.776 E43.94771
G1 X3.111 Y152.11 E44.16641
G1 X2.365 Y149.356 E44.39397
G1 X1.561 Y146.687 E44.61629
G1 X1.463 Y146.39 E44.64123
G1 X1.453 Y146.358 E44.64391
G1 X1.335 Y145.969 E44.67633
G1 X1.271 Y145.573 E44.70832
G1 X1.264 Y145.265 E44.73289
G1 X1.264 Y145.208 E44.73744
G1 X1.303 Y142.713 E44.93646
G1 X1.304 Y142.691 E44.93821
G1 X1.326 Y141.962 E44.99638
G1 X1.376 Y141.623 E45.02371
G1 X1.475 Y141.358 E45.04628
G1 X2.092 Y140.094 E45.15846
G1 X2.9 Y138.4 E45.30815
G1 X4.052 Y135.827 E45.53299
G1 X5.119 Y133.253 E45.75523
G1 X6.11 Y130.662 E45.97647
G1 X7.03 Y128.021 E46.19953
G1 X7.871 Y125.379 E46.42066
G1 X8.634 Y122.725 E46.64091
G1 X9.324 Y120.024 E46.86325
G1 X10.095 Y116.889 E47.12074
G1 X10.098 Y116.874 E47.12196
G1 X10.384 Y115.759 E47.21377
G1 X10.39 Y115.739 E47.21543
G1 X11.094 Y113.146 E47.42973
G1 X11.099 Y113.128 E47.43122
G1 X11.417 Y112.013 E47.52369
G1 X11.422 Y111.996 E47.52511
G1 X12.19 Y109.418 E47.73965
G1 X12.194 Y109.403 E47.74089
G1 X12.525 Y108.334 E47.83014
G1 X12.531 Y108.314 E47.83181
G1 X13.344 Y105.813 E48.04155
G1 X13.35 Y105.796 E48.04299
G1 X13.755 Y104.6 E48.1437
G1 X13.761 Y104.583 E48.14514
G1 X14.628 Y102.126 E48.35294
G1 X14.634 Y102.111 E48.35423
G1 X15.049 Y100.974 E48.45077
G1 X15.056 Y100.954 E48.45246
G1 X15.994 Y98.491 E48.66266
G1 X16 Y98.474 E48.6641
G1 X16.43 Y97.385 E48.75748
G1 X16.437 Y97.369 E48.75887
G1 X17.447 Y94.9 E48.97163
G1 X17.454 Y94.884 E48.97302
G1 X17.904 Y93.818 E49.06531
G1 X17.912 Y93.799 E49.06695
G1 X18.977 Y91.374 E49.27819
G1 X18.984 Y91.358 E49.27959
G1 X19.487 Y90.249 E49.37671
G1 X19.495 Y90.233 E49.37814
G1 X20.586 Y87.902 E49.58341
G1 X20.593 Y87.885 E49.58487
G1 X21.145 Y86.742 E49.68611
G1 X21.153 Y86.726 E49.68754
G1 X22.309 Y84.407 E49.8942
G1 X22.318 Y84.39 E49.89573
G1 X22.864 Y83.328 E49.99097
G1 X22.872 Y83.312 E49.9924
G1 X24.096 Y81.002 E50.2009
G1 X24.105 Y80.986 E50.20237
G1 X24.705 Y79.886 E50.3023
G1 X24.714 Y79.87 E50.30377
G1 X25.56 Y78.365 E50.44146
G1 X26.89 Y75.918 E50.66359
G1 X28.152 Y73.429 E50.88617
G1 X29.332 Y70.931 E51.10651
G1 X30.467 Y68.34 E51.33212
G1 X31.511 Y65.77 E51.55336
