;START_OF_HEADER
;HEADER_VERSION:0.1
;FLAVOR:Griffin
;GENERATOR.NAME:Cura_SteamEngine
;GENERATOR.VERSION:4.4.0
;GENERATOR.BUILD_DATE:2019-11-19
;TARGET_MACHINE.NAME:Ultimaker 3
;EXTRUDER_TRAIN.0.INITIAL_TEMPERATURE:230
;EXTRUDER_TRAIN.0.MATERIAL.VOLUME_USED:24682
;EXTRUDER_TRAIN.0.MATERIAL.GUID:0e01be8c-e425-4fb1-b4a3-b79f255f1db9
;EXTRUDER_TRAIN.0.NOZZLE.DIAMETER:0.8
;EXTRUDER_TRAIN.0.NOZZLE.NAME:AA 0.8
;BUILD_PLATE.TYPE:glass
;BUILD_PLATE.INITIAL_TEMPERATURE:60
;PRINT.TIME:2561
;PRINT.GROUPS:1
;PRINT.SIZE.MIN.X:0.908
;PRINT.SIZE.MIN.Y:6
;PRINT.SIZE.MIN.Z:0.53
;PRINT.SIZE.MAX.X:214.146
;PRINT.SIZE.MAX.Y:209.327
;PRINT.SIZE.MAX.Z:4.82
;END_OF_HEADER
;Generated with Cura_SteamEngine 4.4.0
T0
M82 ;absolute extrusion mode

G92 E0
M109 S230
G0 F15000 X9 Y6 Z2
G280
G1 F1500 E-6.5
;LAYER_COUNT:14
;LAYER:0
M107
M204 S625
M205 X30 Y30
G0 F6000 X40.142 Y29.703 Z0.53
M204 S500
M205 X25 Y25
;TYPE:SKIRT
G1 F900 E0
G1 F1200 X40.239 Y29.59 E0.01188
G1 X40.907 Y28.888 E0.08916
G1 X41.008 Y28.791 E0.10033
G1 X41.716 Y28.175 E0.17518
G1 X41.829 Y28.086 E0.18665
G1 X42.607 Y27.532 E0.26283
G1 X42.727 Y27.455 E0.2742
G1 X43.565 Y26.973 E0.3513
G1 X43.696 Y26.906 E0.36304
G1 X44.579 Y26.509 E0.44026
G1 X44.71 Y26.458 E0.45147
G1 X45.588 Y26.16 E0.52542
G1 X45.728 Y26.12 E0.53703
G1 X46.671 Y25.9 E0.61426
G1 X46.814 Y25.874 E0.62585
G1 X48.461 Y25.657 E0.75835
G1 X51.225 Y25.263 E0.98102
G1 X54 Y24.788 E1.20557
G1 X56.725 Y24.242 E1.42722
G1 X59.418 Y23.622 E1.64763
G1 X62.123 Y22.919 E1.87054
G1 X64.8 Y22.141 E2.09288
G1 X67.456 Y21.287 E2.3154
G1 X70.095 Y20.355 E2.53861
G1 X72.698 Y19.353 E2.76107
G1 X75.244 Y18.288 E2.98118
G1 X77.79 Y17.139 E3.20396
G1 X80.419 Y15.859 E3.43718
G1 X81.836 Y15.144 E3.56376
G1 X81.893 Y15.117 E3.56879
G1 X82.744 Y14.732 E3.64329
G1 X82.763 Y14.723 E3.64497
G1 X84.717 Y13.872 E3.81495
G1 X87.246 Y12.685 E4.03777
G1 X89.748 Y11.425 E4.26119
G1 X92.181 Y10.108 E4.48185
G1 X94.607 Y8.708 E4.70524
G1 X96.179 Y7.749 E4.85211
G1 X97.246 Y7.085 E4.95234
G1 X97.557 Y6.939 E4.97975
G1 X97.75 Y6.888 E4.99567
G1 X98.105 Y6.82 E5.0245
G1 X98.148 Y6.813 E5.02797
G1 X100.607 Y6.417 E5.22662
G1 X100.628 Y6.414 E5.22831
G1 X101.279 Y6.319 E5.28078
G1 X101.713 Y6.319 E5.3154
G1 X104.461 Y6.732 E5.53703
G1 X107.241 Y7.076 E5.76044
G1 X109.972 Y7.336 E5.97925
G1 X112.779 Y7.522 E6.20361
G1 X115.558 Y7.628 E6.42542
G1 X118.338 Y7.656 E6.64715
G1 X121.122 Y7.605 E6.86923
G1 X123.516 Y7.497 E7.06037
G1 X124.954 Y7.415 E7.17524
G1 X124.97 Y7.415 E7.17652
G1 X126.061 Y7.365 E7.26362
G1 X126.078 Y7.364 E7.26498
G1 X129.045 Y7.261 E7.50176
G1 X129.062 Y7.26 E7.50312
G1 X130.206 Y7.234 E7.59439
G1 X130.223 Y7.234 E7.59574
G1 X133.069 Y7.202 E7.82274
G1 X133.085 Y7.202 E7.82402
G1 X134.241 Y7.201 E7.91622
G1 X134.258 Y7.201 E7.91758
G1 X137.143 Y7.233 E8.14769
G1 X137.161 Y7.233 E8.14912
G1 X138.319 Y7.26 E8.24151
G1 X138.336 Y7.261 E8.24286
G1 X141.253 Y7.362 E8.47565
G1 X141.272 Y7.363 E8.47717
G1 X142.351 Y7.414 E8.56333
G1 X142.366 Y7.414 E8.56452
G1 X143.754 Y7.494 E8.67541
G1 X146.552 Y7.615 E8.89878
G1 X149.333 Y7.658 E9.12061
G1 X152.112 Y7.621 E9.34227
G1 X154.923 Y7.505 E9.56666
G1 X157.662 Y7.314 E9.78564
G1 X160.468 Y7.038 E10.01052
G1 X163.203 Y6.691 E10.2304
G1 X165.622 Y6.319 E10.4256
G1 X166.059 Y6.317 E10.46046
G1 X166.832 Y6.429 E10.52275
G1 X166.856 Y6.433 E10.52469
G1 X168.89 Y6.761 E10.68901
G1 X168.911 Y6.765 E10.69072
G1 X169.579 Y6.883 E10.74482
G1 X169.909 Y6.981 E10.77228
G1 X170.1 Y7.081 E10.78947
G1 X172.452 Y8.536 E11.01005
G1 X174.875 Y9.946 E11.23364
G1 X177.314 Y11.277 E11.45525
G1 X179.801 Y12.542 E11.67779
G1 X182.313 Y13.732 E11.89948
G1 X185.433 Y15.107 E12.17142
G1 X185.509 Y15.143 E12.17812
G1 X185.789 Y15.286 E12.2032
G1 X185.849 Y15.318 E12.20862
G1 X186.344 Y15.6 E12.25406
G1 X186.412 Y15.641 E12.26039
G1 X186.656 Y15.798 E12.28353
G1 X186.712 Y15.837 E12.28898
G1 X187.061 Y16.085 E12.32312
G1 X187.133 Y16.139 E12.3303
G1 X187.809 Y16.684 E12.39956
G1 X187.887 Y16.752 E12.40781
G1 X188.197 Y17.04 E12.44156
G1 X188.265 Y17.106 E12.44912
G1 X188.712 Y17.578 E12.50096
G1 X188.773 Y17.647 E12.50831
G1 X188.94 Y17.847 E12.52909
G1 X188.978 Y17.895 E12.53397
G1 X189.351 Y18.381 E12.58284
G1 X189.4 Y18.449 E12.58952
G1 X190.74 Y20.418 E12.77948
G1 X192.347 Y22.667 E12.99994
G1 X194.055 Y24.922 E13.22556
G1 X195.781 Y27.072 E13.44545
G1 X197.59 Y29.197 E13.66803
G1 X199.462 Y31.276 E13.89116
G1 X201.365 Y33.273 E14.11117
G1 X203.361 Y35.252 E14.33535
G1 X205.015 Y36.791 E14.51554
G1 X205.03 Y36.805 E14.51718
G1 X205.69 Y37.436 E14.59
G1 X205.732 Y37.479 E14.5948
G1 X206.139 Y37.901 E14.64156
G1 X206.199 Y37.966 E14.64861
G1 X206.393 Y38.193 E14.67243
G1 X206.432 Y38.241 E14.67736
G1 X206.791 Y38.698 E14.72371
G1 X206.838 Y38.761 E14.72998
G1 X207.008 Y39.003 E14.75357
G1 X207.046 Y39.06 E14.75903
G1 X207.355 Y39.546 E14.80496
G1 X207.395 Y39.613 E14.81119
G1 X207.55 Y39.888 E14.83636
G1 X207.583 Y39.95 E14.84197
G1 X207.837 Y40.455 E14.88705
G1 X207.871 Y40.527 E14.8934
G1 X208.004 Y40.831 E14.91987
G1 X208.03 Y40.894 E14.9253
G1 X208.237 Y41.434 E14.97143
G1 X208.265 Y41.515 E14.97826
G1 X208.357 Y41.804 E15.00245
G1 X208.375 Y41.864 E15.00745
G1 X208.527 Y42.422 E15.05357
G1 X208.546 Y42.498 E15.05982
G1 X208.608 Y42.785 E15.08324
G1 X208.622 Y42.86 E15.08932
G1 X208.702 Y43.352 E15.12908
G1 X208.708 Y43.392 E15.13231
G1 X208.829 Y44.289 E15.2045
G1 X208.832 Y44.312 E15.20635
G1 X208.926 Y45.104 E15.26996
G1 X209.297 Y47.885 E15.49373
G1 X209.74 Y50.618 E15.71455
G1 X210.272 Y53.394 E15.93998
G1 X210.864 Y56.075 E16.15896
G1 X211.544 Y58.787 E16.38195
G1 X212.303 Y61.487 E16.60564
G1 X213.125 Y64.128 E16.82625
G1 X213.684 Y65.734 E16.96188
G1 X213.689 Y65.751 E16.96329
G1 X214.064 Y66.87 E17.05741
G1 X214.141 Y67.316 E17.09351
G1 X214.146 Y67.627 E17.11832
G1 X214.146 Y67.674 E17.12207
G1 X214.108 Y70.161 E17.32045
G1 X214.107 Y70.183 E17.3222
G1 X214.085 Y70.913 E17.38045
G1 X214.035 Y71.252 E17.40778
G1 X213.97 Y71.441 E17.42372
G1 X213.664 Y72.169 E17.48671
G1 X213.656 Y72.188 E17.48835
G1 X213.154 Y73.337 E17.58836
G1 X212.112 Y75.922 E17.81065
G1 X211.128 Y78.575 E18.03633
G1 X210.249 Y81.173 E18.25507
G1 X209.417 Y83.877 E18.48071
G1 X208.685 Y86.523 E18.69968
G1 X208.007 Y89.268 E18.92519
G1 X207.013 Y94.039 E19.31388
G1 X206.662 Y95.775 E19.45514
G1 X206.658 Y95.791 E19.45645
G1 X206.443 Y96.794 E19.53827
G1 X206.44 Y96.809 E19.53949
G1 X206.271 Y97.561 E19.60096
G1 X206.27 Y97.565 E19.60129
G1 X205.835 Y99.475 E19.75752
G1 X205.831 Y99.491 E19.75884
G1 X205.577 Y100.551 E19.84578
G1 X205.573 Y100.569 E19.84725
G1 X204.91 Y103.189 E20.0628
G1 X204.904 Y103.213 E20.06477
G1 X204.434 Y104.95 E20.20829
G1 X204.43 Y104.962 E20.2093
G1 X203.896 Y106.867 E20.36709
G1 X203.892 Y106.882 E20.36833
G1 X203.607 Y107.859 E20.4495
G1 X203.603 Y107.874 E20.45074
G1 X203.377 Y108.621 E20.51298
G1 X203.375 Y108.625 E20.51334
G1 X202.806 Y110.483 E20.66832
G1 X202.801 Y110.5 E20.66973
G1 X202.455 Y111.583 E20.76041
G1 X202.45 Y111.599 E20.76175
G1 X201.625 Y114.083 E20.9705
G1 X201.619 Y114.1 E20.97194
G1 X201.245 Y115.183 E21.06332
G1 X201.239 Y115.201 E21.06484
G1 X200.329 Y117.73 E21.2792
G1 X200.323 Y117.746 E21.28057
G1 X199.953 Y118.738 E21.36501
G1 X199.947 Y118.753 E21.3663
G1 X199.696 Y119.405 E21.42202
G1 X199.695 Y119.409 E21.42235
G1 X198.985 Y121.237 E21.57875
G1 X198.978 Y121.253 E21.58015
G1 X198.539 Y122.345 E21.67402
G1 X198.532 Y122.362 E21.67548
G1 X197.543 Y124.739 E21.88082
G1 X197.537 Y124.753 E21.88203
G1 X197.079 Y125.821 E21.97472
G1 X197.071 Y125.839 E21.97629
G1 X196.01 Y128.226 E22.18463
G1 X196.003 Y128.243 E22.18609
G1 X195.504 Y129.329 E22.28141
G1 X195.496 Y129.345 E22.28284
G1 X194.397 Y131.662 E22.48737
G1 X194.39 Y131.678 E22.48876
G1 X193.838 Y132.808 E22.58907
G1 X193.829 Y132.825 E22.5906
G1 X192.701 Y135.059 E22.7902
G1 X192.693 Y135.075 E22.79163
G1 X192.097 Y136.221 E22.89465
G1 X192.089 Y136.236 E22.89601
G1 X190.94 Y138.384 E23.0903
G1 X190.931 Y138.4 E23.09176
G1 X190.265 Y139.609 E23.20185
G1 X190.257 Y139.625 E23.20328
G1 X189.951 Y140.165 E23.25278
G1 X189.95 Y140.165 E23.25286
G1 X188.619 Y142.589 E23.47342
G1 X187.348 Y145.068 E23.69561
G1 X186.138 Y147.603 E23.91964
G1 X185.001 Y150.17 E24.14356
G1 X183.939 Y152.759 E24.36675
G1 X182.97 Y155.336 E24.58633
G1 X182.068 Y157.95 E24.80688
G1 X181.229 Y160.627 E25.03063
G1 X180.47 Y163.311 E25.25309
G1 X179.783 Y166.032 E25.47692
G1 X179.174 Y168.761 E25.69993
G1 X178.657 Y171.448 E25.91817
G1 X178.206 Y174.198 E26.14043
G1 X177.828 Y177 E26.36593
G1 X177.558 Y179.63 E26.57679
G1 X177.556 Y179.654 E26.57871
G1 X177.498 Y180.14 E26.61775
G1 X177.483 Y180.234 E26.62534
G1 X177.322 Y181.105 E26.69599
G1 X177.291 Y181.238 E26.70688
G1 X177.039 Y182.13 E26.78081
G1 X176.996 Y182.261 E26.7918
G1 X176.652 Y183.152 E26.86798
G1 X176.627 Y183.211 E26.87309
G1 X176.531 Y183.431 E26.89223
G1 X176.5 Y183.499 E26.89819
G1 X176.337 Y183.826 E26.92733
G1 X176.303 Y183.89 E26.93311
G1 X176.076 Y184.295 E26.97014
G1 X176.032 Y184.369 E26.97701
G1 X175.593 Y185.055 E27.04197
G1 X175.514 Y185.165 E27.05277
G1 X174.896 Y185.96 E27.13308
G1 X174.803 Y186.069 E27.14451
G1 X174.173 Y186.735 E27.21763
G1 X174.069 Y186.835 E27.22913
G1 X173.322 Y187.484 E27.30806
G1 X173.207 Y187.574 E27.3197
G1 X172.443 Y188.116 E27.39441
G1 X172.324 Y188.192 E27.40568
G1 X171.49 Y188.671 E27.48238
G1 X171.362 Y188.737 E27.49387
G1 X170.48 Y189.135 E27.57104
G1 X170.345 Y189.188 E27.58261
G1 X169.461 Y189.487 E27.65704
G1 X169.323 Y189.526 E27.66848
G1 X168.389 Y189.744 E27.74497
G1 X168.247 Y189.77 E27.75649
G1 X166.595 Y189.988 E27.88939
G1 X163.831 Y190.382 E28.11206
G1 X161.056 Y190.857 E28.33661
G1 X158.331 Y191.403 E28.55826
G1 X155.638 Y192.023 E28.77867
G1 X152.933 Y192.726 E29.00158
G1 X150.256 Y193.504 E29.22392
G1 X147.6 Y194.358 E29.44643
G1 X144.961 Y195.29 E29.66965
G1 X142.358 Y196.292 E29.89211
G1 X139.815 Y197.356 E30.11197
G1 X137.266 Y198.506 E30.335
G1 X134.637 Y199.786 E30.56821
G1 X133.22 Y200.501 E30.6948
G1 X133.164 Y200.528 E30.69976
G1 X132.292 Y200.923 E30.77611
G1 X132.272 Y200.932 E30.77786
G1 X130.285 Y201.797 E30.9507
G1 X127.8 Y202.965 E31.1697
G1 X125.265 Y204.243 E31.39612
G1 X122.861 Y205.545 E31.61417
G1 X120.422 Y206.954 E31.83883
G1 X118.846 Y207.915 E31.98605
G1 X117.816 Y208.556 E32.08281
G1 X117.506 Y208.703 E32.11017
G1 X117.328 Y208.751 E32.12487
G1 X116.997 Y208.818 E32.15181
G1 X116.938 Y208.828 E32.15658
G1 X114.453 Y209.227 E32.35732
G1 X114.433 Y209.23 E32.35893
G1 X113.778 Y209.326 E32.41173
G1 X113.343 Y209.326 E32.44642
G1 X110.582 Y208.911 E32.6691
G1 X107.802 Y208.567 E32.89252
G1 X105.07 Y208.308 E33.11139
G1 X102.264 Y208.122 E33.33568
G1 X99.485 Y208.016 E33.55749
G1 X96.707 Y207.989 E33.77906
G1 X93.921 Y208.041 E34.0013
G1 X91.544 Y208.147 E34.19107
G1 X90.059 Y208.231 E34.3097
G1 X90.043 Y208.231 E34.31098
G1 X88.97 Y208.28 E34.39664
G1 X88.954 Y208.281 E34.39792
G1 X86.008 Y208.384 E34.63303
G1 X85.99 Y208.385 E34.63447
G1 X84.852 Y208.411 E34.72525
G1 X84.835 Y208.411 E34.72661
G1 X81.987 Y208.443 E34.95377
G1 X81.971 Y208.443 E34.95505
G1 X80.815 Y208.444 E35.04725
G1 X80.798 Y208.444 E35.0486
G1 X77.915 Y208.412 E35.27856
G1 X77.897 Y208.412 E35.27999
G1 X76.733 Y208.385 E35.37285
G1 X76.715 Y208.384 E35.37429
G1 X73.786 Y208.282 E35.60804
G1 X73.769 Y208.281 E35.6094
G1 X72.702 Y208.231 E35.69459
G1 X72.686 Y208.231 E35.69587
G1 X71.296 Y208.151 E35.80691
G1 X68.498 Y208.03 E36.03028
G1 X65.717 Y207.987 E36.25211
G1 X62.938 Y208.024 E36.47377
G1 X60.127 Y208.14 E36.69816
G1 X57.388 Y208.331 E36.91715
G1 X54.582 Y208.607 E37.14202
G1 X51.849 Y208.954 E37.36175
G1 X49.436 Y209.325 E37.55646
G1 X49.002 Y209.327 E37.59108
G1 X48.231 Y209.217 E37.65319
G1 X48.204 Y209.213 E37.65537
G1 X46.182 Y208.887 E37.81872
G1 X46.162 Y208.884 E37.82033
G1 X45.472 Y208.763 E37.87621
G1 X45.143 Y208.665 E37.90359
G1 X44.949 Y208.563 E37.92107
G1 X42.61 Y207.114 E38.14051
G1 X40.177 Y205.698 E38.36503
G1 X37.738 Y204.368 E38.5866
G1 X35.249 Y203.101 E38.80936
G1 X32.739 Y201.911 E39.03091
G1 X29.597 Y200.526 E39.30477
G1 X29.523 Y200.491 E39.3113
G1 X29.295 Y200.375 E39.3317
G1 X29.233 Y200.342 E39.3373
G1 X28.854 Y200.126 E39.37209
G1 X28.776 Y200.078 E39.3794
G1 X28.071 Y199.616 E39.44662
G1 X28.026 Y199.585 E39.45098
G1 X27.854 Y199.463 E39.4678
G1 X27.789 Y199.415 E39.47425
G1 X27.57 Y199.241 E39.49655
G1 X27.521 Y199.2 E39.50165
G1 X27.082 Y198.819 E39.54801
G1 X27.021 Y198.763 E39.55462
G1 X26.814 Y198.562 E39.57763
G1 X26.768 Y198.515 E39.58287
G1 X26.47 Y198.199 E39.61751
G1 X26.407 Y198.128 E39.62509
G1 X25.856 Y197.463 E39.69396
G1 X25.78 Y197.363 E39.70398
G1 X24.855 Y196.03 E39.83339
G1 X24.842 Y196.011 E39.83522
G1 X24.334 Y195.254 E39.90793
G1 X22.691 Y192.952 E40.1335
G1 X21.013 Y190.735 E40.35526
G1 X19.263 Y188.56 E40.57791
G1 X17.481 Y186.465 E40.79727
G1 X15.6 Y184.377 E41.02141
G1 X13.696 Y182.379 E41.24154
G1 X11.71 Y180.409 E41.46464
G1 X10.121 Y178.929 E41.63783
G1 X10.11 Y178.918 E41.63907
G1 X9.37 Y178.214 E41.72054
G1 X9.322 Y178.167 E41.72589
G1 X8.917 Y177.745 E41.77254
G1 X8.86 Y177.682 E41.77932
G1 X8.653 Y177.44 E41.80472
G1 X8.614 Y177.392 E41.80965
G1 X8.259 Y176.94 E41.85549
G1 X8.21 Y176.874 E41.86205
G1 X8.045 Y176.638 E41.88501
G1 X8.009 Y176.584 E41.89019
G1 X7.688 Y176.079 E41.93791
G1 X7.649 Y176.014 E41.94396
G1 X7.503 Y175.756 E41.9676
G1 X7.467 Y175.689 E41.97367
G1 X7.215 Y175.185 E42.01861
G1 X7.182 Y175.114 E42.02486
G1 X7.053 Y174.818 E42.05061
G1 X7.028 Y174.756 E42.05594
G1 X6.816 Y174.202 E42.10325
G1 X6.789 Y174.127 E42.10961
G1 X6.703 Y173.86 E42.13198
G1 X6.684 Y173.795 E42.13738
G1 X6.525 Y173.211 E42.18566
G1 X6.504 Y173.124 E42.19279
G1 X6.445 Y172.841 E42.21585
G1 X6.434 Y172.78 E42.22079
G1 X6.354 Y172.295 E42.26
G1 X6.347 Y172.253 E42.26339
G1 X6.225 Y171.353 E42.33583
G1 X6.222 Y171.329 E42.33776
G1 X6.129 Y170.547 E42.40057
G1 X5.765 Y167.805 E42.62118
G1 X5.319 Y165.054 E42.84346
G1 X4.788 Y162.276 E43.06903
G1 X4.202 Y159.619 E43.28604
G1 X3.514 Y156.869 E43.51213
G1 X2.756 Y154.17 E43.73572
G1 X1.936 Y151.536 E43.95575
G1 X1.381 Y149.941 E44.09044
G1 X1.376 Y149.926 E44.0917
G1 X0.991 Y148.778 E44.18827
G1 X0.914 Y148.334 E44.22421
G1 X0.908 Y148.007 E44.2503
G1 X0.908 Y147.956 E44.25437
G1 X0.948 Y145.479 E44.45195
G1 X0.949 Y145.458 E44.45363
G1 X0.971 Y144.732 E44.51156
G1 X1.021 Y144.392 E44.53896
G1 X1.086 Y144.203 E44.55491
G1 X1.386 Y143.49 E44.6166
G1 X1.394 Y143.47 E44.61832
G1 X1.878 Y142.365 E44.71453
G1 X2.922 Y139.782 E44.93674
G1 X3.893 Y137.169 E45.15906
G1 X4.781 Y134.553 E45.3794
G1 X5.597 Y131.907 E45.60024
G1 X6.355 Y129.183 E45.82576
G1 X7.025 Y126.483 E46.04763
G1 X7.611 Y123.784 E46.26791
G1 X8.038 Y121.627 E46.44328
G1 X8.04 Y121.619 E46.44394
G1 X8.404 Y119.827 E46.58978
G1 X8.407 Y119.812 E46.591
G1 X8.626 Y118.791 E46.67429
G1 X8.63 Y118.773 E46.67576
G1 X9.221 Y116.171 E46.88857
G1 X9.226 Y116.147 E46.89053
G1 X9.651 Y114.409 E47.03323
G1 X9.654 Y114.398 E47.03414
G1 X10.13 Y112.517 E47.18889
G1 X10.135 Y112.498 E47.19046
G1 X10.433 Y111.383 E47.28251
G1 X10.437 Y111.368 E47.28374
G1 X11.14 Y108.846 E47.49256
G1 X11.145 Y108.828 E47.49405
G1 X11.481 Y107.679 E47.58953
G1 X11.486 Y107.662 E47.59094
G1 X12.24 Y105.191 E47.79699
G1 X12.246 Y105.173 E47.7985
G1 X12.61 Y104.033 E47.89395
G1 X12.615 Y104.017 E47.89529
G1 X13.413 Y101.614 E48.09723
G1 X13.419 Y101.596 E48.09875
G1 X13.825 Y100.422 E48.19782
G1 X13.831 Y100.405 E48.19926
G1 X14.704 Y97.98 E48.40482
G1 X14.71 Y97.964 E48.40618
G1 X15.144 Y96.8 E48.50526
G1 X15.151 Y96.782 E48.5068
G1 X16.076 Y94.396 E48.7109
G1 X16.083 Y94.38 E48.7123
G1 X16.499 Y93.344 E48.80134
G1 X16.505 Y93.327 E48.80278
G1 X17.541 Y90.835 E49.01802
G1 X17.551 Y90.813 E49.01995
G1 X18.258 Y89.187 E49.16136
G1 X18.263 Y89.175 E49.1624
G1 X19.026 Y87.461 E49.31203
G1 X19.033 Y87.445 E49.31343
G1 X19.564 Y86.29 E49.41482
G1 X19.572 Y86.274 E49.41624
G1 X20.678 Y83.943 E49.62202
G1 X20.685 Y83.927 E49.62341
G1 X21.198 Y82.877 E49.71662
G1 X21.206 Y82.861 E49.71805
