;START_OF_HEADER
;HEADER_VERSION:0.1
;FLAVOR:Griffin
;GENERATOR.NAME:Cura_SteamEngine
;GENERATOR.VERSION:4.4.0
;GENERATOR.BUILD_DATE:2019-11-19
;TARGET_MACHINE.NAME:Ultimaker 3
;EXTRUDER_TRAIN.0.INITIAL_TEMPERATURE:260
;EXTRUDER_TRAIN.0.MATERIAL.VOLUME_USED:25522
;EXTRUDER_TRAIN.0.MATERIAL.GUID:12f41353-1a33-415e-8b4f-a775a6c70cc6
;EXTRUDER_TRAIN.0.NOZZLE.DIAMETER:0.8
;EXTRUDER_TRAIN.0.NOZZLE.NAME:AA 0.8
;BUILD_PLATE.TYPE:glass
;BUILD_PLATE.INITIAL_TEMPERATURE:80
;PRINT.TIME:2704
;PRINT.GROUPS:1
;PRINT.SIZE.MIN.X:0.88
;PRINT.SIZE.MIN.Y:3.436
;PRINT.SIZE.MIN.Z:0.53
;PRINT.SIZE.MAX.X:213.749
;PRINT.SIZE.MAX.Y:214.163
;PRINT.SIZE.MAX.Z:4.82
;END_OF_HEADER
;Generated with Cura_SteamEngine 4.4.0
T0
M82 ;absolute extrusion mode

G92 E0
M109 S260
G0 F15000 X9 Y6 Z2
G280
G1 F1500 E-6.5
;LAYER_COUNT:14
;LAYER:0
M107
M204 S625
M205 X30 Y30
G0 F6000 X37.46 Y29.657 Z0.53
M204 S500
M205 X25 Y25
;TYPE:SKIRT
G1 F900 E0
G1 F1200 X37.517 Y29.59 E0.00702
G1 X37.971 Y29.088 E0.061
G1 X38.005 Y29.053 E0.06489
G1 X38.233 Y28.817 E0.09106
G1 X38.295 Y28.756 E0.098
G1 X38.862 Y28.234 E0.15947
G1 X38.898 Y28.202 E0.16331
G1 X39.137 Y27.996 E0.18847
G1 X39.203 Y27.942 E0.19528
G1 X39.758 Y27.517 E0.25103
G1 X39.799 Y27.487 E0.25508
G1 X40.06 Y27.301 E0.28064
G1 X40.129 Y27.254 E0.2873
G1 X40.758 Y26.857 E0.34662
G1 X40.801 Y26.831 E0.35063
G1 X41.049 Y26.686 E0.37354
G1 X41.126 Y26.645 E0.3805
G1 X41.811 Y26.297 E0.44178
G1 X41.855 Y26.275 E0.44571
G1 X42.153 Y26.136 E0.47193
G1 X42.232 Y26.102 E0.47879
G1 X42.873 Y25.847 E0.53381
G1 X42.912 Y25.832 E0.53714
G1 X43.183 Y25.733 E0.56016
G1 X43.273 Y25.703 E0.56772
G1 X44.037 Y25.478 E0.63124
G1 X44.085 Y25.465 E0.63521
G1 X44.387 Y25.387 E0.66009
G1 X44.469 Y25.368 E0.6668
G1 X45.155 Y25.232 E0.72258
G1 X45.201 Y25.224 E0.7263
G1 X45.641 Y25.151 E0.76187
G1 X45.681 Y25.145 E0.7651
G1 X46.727 Y25.001 E0.84931
G1 X49.489 Y24.582 E1.07212
G1 X52.223 Y24.088 E1.29371
G1 X54.944 Y23.517 E1.51545
G1 X57.623 Y22.874 E1.73519
G1 X60.371 Y22.133 E1.96219
G1 X62.999 Y21.343 E2.18106
G1 X65.684 Y20.453 E2.40666
G1 X68.278 Y19.51 E2.6268
G1 X70.872 Y18.484 E2.84928
G1 X73.455 Y17.375 E3.07348
G1 X75.958 Y16.218 E3.2934
G1 X78.457 Y14.974 E3.51605
G1 X80.907 Y13.668 E3.73748
G1 X83.358 Y12.27 E3.96253
G1 X85.704 Y10.843 E4.18153
G1 X88.04 Y9.329 E4.40355
G1 X90.339 Y7.749 E4.62604
G1 X90.643 Y7.589 E4.65344
G1 X90.863 Y7.523 E4.67176
G1 X91.235 Y7.442 E4.70212
G1 X91.315 Y7.427 E4.70862
G1 X93.765 Y7.033 E4.90653
G1 X93.785 Y7.03 E4.90814
G1 X94.447 Y6.933 E4.96151
G1 X94.529 Y6.923 E4.96809
G1 X95.57 Y6.829 E5.05146
G1 X95.595 Y6.827 E5.05346
G1 X96.157 Y6.786 E5.0984
G1 X98.924 Y6.503 E5.32024
G1 X101.689 Y6.14 E5.54266
G1 X104.425 Y5.703 E5.76364
G1 X107.162 Y5.186 E5.98579
G1 X109.885 Y4.591 E6.2081
G1 X111.46 Y4.21 E6.33734
G1 X111.507 Y4.2 E6.34117
G1 X111.969 Y4.104 E6.3788
G1 X112.035 Y4.092 E6.38415
G1 X114.504 Y3.695 E6.5836
G1 X114.524 Y3.692 E6.58522
G1 X115.179 Y3.596 E6.63801
G1 X115.632 Y3.599 E6.67414
G1 X116.589 Y3.755 E6.75148
G1 X119.338 Y4.174 E6.97326
G1 X122.136 Y4.52 E7.19812
G1 X124.867 Y4.78 E7.41692
G1 X127.675 Y4.967 E7.64138
G1 X130.454 Y5.073 E7.86318
G1 X133.234 Y5.101 E8.08492
G1 X136.047 Y5.049 E8.30931
G1 X138.792 Y4.921 E8.52848
G1 X141.593 Y4.711 E8.75251
G1 X144.364 Y4.424 E8.97469
G1 X147.116 Y4.06 E9.1961
G1 X149.892 Y3.612 E9.42037
G1 X150.867 Y3.444 E9.49927
G1 X151.325 Y3.436 E9.53581
G1 X152.093 Y3.544 E9.59766
G1 X152.122 Y3.549 E9.60001
G1 X154.171 Y3.879 E9.76554
G1 X154.193 Y3.882 E9.76731
G1 X154.863 Y4 E9.82157
G1 X154.944 Y4.017 E9.82817
G1 X156.29 Y4.333 E9.93844
G1 X156.308 Y4.337 E9.93991
G1 X156.75 Y4.446 E9.97622
G1 X159.46 Y5.037 E10.19744
G1 X162.198 Y5.554 E10.41968
G1 X164.941 Y5.988 E10.64117
G1 X167.728 Y6.351 E10.86533
G1 X170.478 Y6.631 E11.08579
G1 X170.478 Y6.63 E11.08587
G1 X171.965 Y6.758 E11.20491
G1 X172.052 Y6.769 E11.2119
G1 X172.854 Y6.886 E11.27655
G1 X172.875 Y6.889 E11.27824
G1 X174.888 Y7.213 E11.44086
G1 X174.911 Y7.217 E11.44272
G1 X175.601 Y7.339 E11.4986
G1 X175.93 Y7.437 E11.52598
G1 X176.339 Y7.702 E11.56485
G1 X177.377 Y8.647 E11.67681
G1 X177.377 Y8.646 E11.67689
G1 X179.253 Y10.318 E11.87731
G1 X181.391 Y12.12 E12.10032
G1 X183.55 Y13.84 E12.32048
G1 X185.812 Y15.538 E12.54607
G1 X185.812 Y15.539 E12.54615
G1 X186.374 Y15.947 E12.60154
G1 X186.411 Y15.975 E12.60524
G1 X186.875 Y16.335 E12.65208
G1 X186.94 Y16.388 E12.65876
G1 X187.165 Y16.584 E12.68256
G1 X187.214 Y16.628 E12.68782
G1 X187.615 Y17.01 E12.73199
G1 X187.668 Y17.064 E12.73802
G1 X187.85 Y17.256 E12.75912
G1 X187.903 Y17.315 E12.76545
G1 X188.292 Y17.772 E12.81331
G1 X188.341 Y17.833 E12.81955
G1 X188.522 Y18.07 E12.84334
G1 X188.564 Y18.127 E12.84898
G1 X189.433 Y19.385 E12.97093
G1 X189.444 Y19.402 E12.97254
G1 X189.985 Y20.208 E13.04997
G1 X191.607 Y22.483 E13.27281
G1 X193.306 Y24.727 E13.49729
G1 X195.018 Y26.861 E13.7155
G1 X196.814 Y28.975 E13.93674
G1 X198.705 Y31.078 E14.1623
G1 X200.632 Y33.101 E14.38513
G1 X202.599 Y35.054 E14.60621
G1 X205.092 Y37.396 E14.87902
G1 X205.151 Y37.454 E14.88562
G1 X205.332 Y37.644 E14.90655
G1 X205.381 Y37.698 E14.91236
G1 X205.782 Y38.163 E14.96134
G1 X205.831 Y38.224 E14.96758
G1 X205.961 Y38.392 E14.98452
G1 X206.004 Y38.45 E14.99028
G1 X206.374 Y38.979 E15.04176
G1 X206.422 Y39.053 E15.0488
G1 X206.57 Y39.294 E15.07136
G1 X206.603 Y39.35 E15.07654
G1 X206.88 Y39.849 E15.12206
G1 X206.914 Y39.914 E15.12791
G1 X207.031 Y40.152 E15.14906
G1 X207.063 Y40.222 E15.1552
G1 X207.305 Y40.787 E15.20422
G1 X207.334 Y40.86 E15.21049
G1 X207.417 Y41.086 E15.22969
G1 X207.441 Y41.156 E15.23559
G1 X207.624 Y41.744 E15.28471
G1 X207.645 Y41.819 E15.29092
G1 X207.712 Y42.082 E15.31256
G1 X207.729 Y42.154 E15.31846
G1 X207.849 Y42.748 E15.3668
G1 X207.857 Y42.791 E15.37029
G1 X207.936 Y43.255 E15.40783
G1 X208.446 Y45.994 E15.63003
G1 X209.043 Y48.757 E15.85549
G1 X209.691 Y51.401 E16.0726
G1 X210.444 Y54.133 E16.29863
G1 X211.261 Y56.798 E16.52094
G1 X212.152 Y59.436 E16.74302
G1 X213.65 Y63.415 E17.08211
G1 X213.745 Y63.917 E17.12286
G1 X213.749 Y64.227 E17.14759
G1 X213.749 Y64.27 E17.15102
G1 X213.709 Y66.747 E17.3486
G1 X213.708 Y66.768 E17.35028
G1 X213.686 Y67.494 E17.40821
G1 X213.665 Y67.701 E17.4248
G1 X213.619 Y67.965 E17.44618
G1 X213.62 Y67.965 E17.44626
G1 X213.18 Y70.739 E17.67027
G1 X212.819 Y73.521 E17.89401
G1 X212.542 Y76.252 E18.11294
G1 X212.34 Y79.032 E18.33525
G1 X212.215 Y81.856 E18.56071
G1 X212.171 Y84.644 E18.78309
G1 X212.173 Y84.816 E18.79681
G1 X212.173 Y84.844 E18.79905
G1 X212.167 Y85.486 E18.85025
G1 X212.156 Y85.652 E18.86352
G1 X212.119 Y85.954 E18.88779
G1 X212.113 Y85.998 E18.89133
G1 X211.73 Y88.505 E19.0936
G1 X211.727 Y88.526 E19.09529
G1 X211.613 Y89.204 E19.15013
G1 X211.517 Y89.534 E19.17754
G1 X211.429 Y89.708 E19.19309
G1 X210.938 Y90.544 E19.27041
G1 X210.939 Y90.544 E19.27049
G1 X209.438 Y93.136 E19.50939
G1 X208.127 Y95.563 E19.72939
G1 X206.871 Y98.056 E19.95203
G1 X205.678 Y100.597 E20.17592
G1 X204.583 Y103.115 E20.39491
G1 X203.527 Y105.74 E20.62058
G1 X202.564 Y108.351 E20.84254
G1 X201.787 Y110.639 E21.03526
G1 X200.997 Y113.05 E21.23761
G1 X200.991 Y113.069 E21.2392
G1 X200.667 Y114.013 E21.3188
G1 X200.662 Y114.028 E21.32006
G1 X199.715 Y116.699 E21.54609
G1 X199.708 Y116.719 E21.54778
G1 X199.391 Y117.574 E21.62051
G1 X199.385 Y117.588 E21.62172
G1 X198.388 Y120.191 E21.84403
G1 X198.381 Y120.211 E21.84572
G1 X197.964 Y121.256 E21.93546
G1 X197.957 Y121.271 E21.93678
G1 X196.926 Y123.773 E22.15261
G1 X196.919 Y123.789 E22.154
G1 X196.503 Y124.765 E22.23862
G1 X196.496 Y124.782 E22.24009
G1 X195.368 Y127.343 E22.46328
G1 X195.36 Y127.361 E22.46485
G1 X194.971 Y128.213 E22.53955
G1 X194.965 Y128.227 E22.54077
G1 X193.822 Y130.66 E22.75516
G1 X193.813 Y130.679 E22.75684
G1 X193.29 Y131.753 E22.85211
G1 X193.282 Y131.768 E22.85347
G1 X192.093 Y134.141 E23.06516
G1 X192.085 Y134.157 E23.06659
G1 X191.254 Y135.766 E23.21102
G1 X190.409 Y137.427 E23.35965
G1 X189.224 Y139.908 E23.57894
G1 X188.077 Y142.493 E23.8045
G1 X187.014 Y145.082 E24.02772
G1 X186.052 Y147.639 E24.24561
G1 X185.128 Y150.313 E24.47125
G1 X184.301 Y152.949 E24.6916
G1 X183.546 Y155.613 E24.91244
G1 X182.852 Y158.354 E25.13795
G1 X182.243 Y161.076 E25.36041
G1 X181.717 Y163.809 E25.58239
G1 X181.272 Y166.519 E25.80142
G1 X180.896 Y169.298 E26.02509
G1 X180.598 Y172.093 E26.24927
G1 X180.383 Y174.829 E26.46816
G1 X180.244 Y177.61 E26.69024
G1 X180.208 Y179.378 E26.83128
G1 X180.207 Y179.402 E26.83319
G1 X180.172 Y180.362 E26.90981
G1 X180.166 Y180.449 E26.91677
G1 X180.097 Y181.171 E26.97461
G1 X180.092 Y181.216 E26.97822
G1 X180.05 Y181.547 E27.00484
G1 X180.036 Y181.636 E27.01202
G1 X179.908 Y182.314 E27.06705
G1 X179.898 Y182.362 E27.07096
G1 X179.826 Y182.684 E27.09728
G1 X179.806 Y182.765 E27.10393
G1 X179.602 Y183.483 E27.16346
G1 X179.59 Y183.524 E27.16687
G1 X179.497 Y183.819 E27.19154
G1 X179.464 Y183.911 E27.19934
G1 X179.196 Y184.6 E27.2583
G1 X179.179 Y184.643 E27.26199
G1 X179.059 Y184.925 E27.28643
G1 X179.023 Y185.002 E27.29321
G1 X178.703 Y185.648 E27.35071
G1 X178.681 Y185.691 E27.35456
G1 X178.52 Y185.991 E27.38172
G1 X178.475 Y186.068 E27.38883
G1 X178.101 Y186.674 E27.44562
G1 X178.078 Y186.712 E27.44917
G1 X177.902 Y186.979 E27.47467
G1 X177.85 Y187.053 E27.48189
G1 X177.41 Y187.639 E27.54033
G1 X177.381 Y187.675 E27.54402
G1 X177.168 Y187.941 E27.5712
G1 X177.111 Y188.009 E27.57827
G1 X176.657 Y188.511 E27.63226
G1 X176.622 Y188.548 E27.63632
G1 X176.377 Y188.801 E27.66441
G1 X176.319 Y188.858 E27.67089
G1 X175.804 Y189.334 E27.72683
G1 X175.764 Y189.369 E27.73107
G1 X175.492 Y189.603 E27.75968
G1 X175.427 Y189.656 E27.76637
G1 X174.866 Y190.086 E27.82275
G1 X174.825 Y190.116 E27.8268
G1 X174.574 Y190.295 E27.85139
G1 X174.504 Y190.342 E27.85811
G1 X173.872 Y190.74 E27.91768
G1 X173.829 Y190.766 E27.92169
G1 X173.543 Y190.933 E27.9481
G1 X173.468 Y190.974 E27.95492
G1 X172.849 Y191.289 E28.01031
G1 X172.804 Y191.311 E28.01431
G1 X172.504 Y191.451 E28.04071
G1 X172.425 Y191.485 E28.04757
G1 X171.751 Y191.753 E28.10542
G1 X171.709 Y191.769 E28.10901
G1 X171.392 Y191.884 E28.1359
G1 X171.305 Y191.913 E28.14322
G1 X170.643 Y192.108 E28.19826
G1 X170.596 Y192.121 E28.20215
G1 X170.248 Y192.211 E28.23082
G1 X170.166 Y192.229 E28.23751
G1 X169.494 Y192.363 E28.29216
G1 X169.449 Y192.372 E28.29582
G1 X169.012 Y192.445 E28.33116
G1 X168.969 Y192.451 E28.33462
G1 X167.929 Y192.593 E28.41834
G1 X165.155 Y193.014 E28.64212
G1 X162.421 Y193.508 E28.8637
G1 X159.7 Y194.079 E29.08545
G1 X157.013 Y194.723 E29.30583
G1 X154.305 Y195.453 E29.52952
G1 X151.622 Y196.258 E29.75293
G1 X148.976 Y197.135 E29.97525
G1 X146.341 Y198.093 E30.19887
G1 X143.771 Y199.109 E30.41928
G1 X141.204 Y200.21 E30.64206
G1 X138.685 Y201.374 E30.86338
G1 X136.185 Y202.618 E31.08609
G1 X133.735 Y203.923 E31.30748
G1 X131.308 Y205.308 E31.53035
G1 X128.905 Y206.768 E31.75461
G1 X126.592 Y208.266 E31.9744
G1 X124.289 Y209.85 E32.19733
G1 X123.985 Y210.011 E32.22477
G1 X123.769 Y210.076 E32.24276
G1 X123.438 Y210.149 E32.26979
G1 X123.354 Y210.165 E32.27661
G1 X120.897 Y210.561 E32.4751
G1 X120.877 Y210.564 E32.47672
G1 X120.174 Y210.667 E32.53338
G1 X120.09 Y210.677 E32.54013
G1 X118.894 Y210.783 E32.63589
G1 X118.873 Y210.785 E32.63758
G1 X118.376 Y210.822 E32.67733
G1 X115.612 Y211.108 E32.89895
G1 X112.853 Y211.472 E33.12091
G1 X110.106 Y211.914 E33.34282
G1 X107.384 Y212.431 E33.56379
G1 X104.621 Y213.038 E33.78942
G1 X104.621 Y213.037 E33.7895
G1 X103.188 Y213.384 E33.90709
G1 X103.144 Y213.395 E33.91071
G1 X102.662 Y213.496 E33.94999
G1 X102.593 Y213.508 E33.95557
G1 X100.124 Y213.905 E34.15502
G1 X100.104 Y213.908 E34.15663
G1 X99.449 Y214.004 E34.20943
G1 X98.996 Y214.001 E34.24556
G1 X98.05 Y213.847 E34.32201
G1 X95.301 Y213.427 E34.5438
G1 X92.503 Y213.08 E34.76867
G1 X89.771 Y212.82 E34.98755
G1 X86.964 Y212.633 E35.21192
G1 X84.183 Y212.526 E35.43389
G1 X81.404 Y212.498 E35.65555
G1 X78.592 Y212.549 E35.87986
G1 X75.846 Y212.677 E36.09911
G1 X73.041 Y212.887 E36.32345
G1 X70.276 Y213.173 E36.54516
G1 X67.516 Y213.538 E36.7672
G1 X64.764 Y213.981 E36.98952
G1 X64.542 Y214.022 E37.00753
G1 X64.517 Y214.027 E37.00956
G1 X63.738 Y214.158 E37.07256
G1 X63.282 Y214.163 E37.10893
G1 X62.539 Y214.056 E37.1688
G1 X62.515 Y214.052 E37.17074
G1 X60.448 Y213.719 E37.33773
G1 X60.428 Y213.716 E37.33934
G1 X59.765 Y213.6 E37.39302
G1 X59.682 Y213.583 E37.39978
G1 X58.637 Y213.338 E37.48538
G1 X58.617 Y213.333 E37.48703
G1 X58.15 Y213.216 E37.52543
G1 X55.454 Y212.621 E37.74563
G1 X52.688 Y212.092 E37.97023
G1 X49.939 Y211.647 E38.19234
G1 X47.188 Y211.281 E38.41368
G1 X44.413 Y210.991 E38.63621
G1 X44.085 Y210.967 E38.66244
G1 X44.063 Y210.965 E38.6642
G1 X42.649 Y210.839 E38.77743
G1 X42.568 Y210.83 E38.78393
G1 X41.828 Y210.723 E38.84356
G1 X41.804 Y210.719 E38.8455
G1 X39.714 Y210.382 E39.01434
G1 X39.695 Y210.379 E39.01588
G1 X39.032 Y210.263 E39.06956
G1 X38.703 Y210.165 E39.09694
G1 X38.291 Y209.9 E39.13601
G1 X36.686 Y208.441 E39.30901
G1 X34.567 Y206.591 E39.53336
G1 X32.406 Y204.808 E39.7568
G1 X30.221 Y203.106 E39.9777
G1 X29.241 Y202.391 E40.07446
G1 X29.227 Y202.381 E40.07583
G1 X28.207 Y201.618 E40.17742
G1 X28.182 Y201.599 E40.17993
G1 X27.746 Y201.258 E40.22407
G1 X27.688 Y201.209 E40.23013
G1 X27.46 Y201.011 E40.25421
G1 X27.41 Y200.967 E40.25953
G1 X27.004 Y200.581 E40.30421
G1 X26.946 Y200.522 E40.31081
G1 X26.77 Y200.335 E40.33129
G1 X26.722 Y200.282 E40.33699
G1 X26.349 Y199.845 E40.38281
G1 X26.3 Y199.784 E40.38905
G1 X26.117 Y199.545 E40.41306
G1 X26.074 Y199.486 E40.41888
G1 X25.175 Y198.185 E40.54501
G1 X25.163 Y198.167 E40.54674
G1 X24.704 Y197.481 E40.61257
G1 X23.084 Y195.204 E40.83545
G1 X21.405 Y192.98 E41.0577
G1 X19.669 Y190.809 E41.2794
G1 X17.864 Y188.681 E41.50195
G1 X15.99 Y186.594 E41.72566
G1 X14.09 Y184.593 E41.94574
G1 X12.112 Y182.626 E42.16823
G1 X10.555 Y181.169 E42.3383
G1 X10.547 Y181.162 E42.33915
G1 X9.53 Y180.197 E42.45096
G1 X9.48 Y180.147 E42.4566
G1 X9.298 Y179.957 E42.47759
G1 X9.247 Y179.901 E42.48363
G1 X8.845 Y179.436 E42.53265
G1 X8.788 Y179.366 E42.53985
G1 X8.627 Y179.155 E42.56102
G1 X8.591 Y179.104 E42.566
G1 X8.253 Y178.62 E42.61308
G1 X8.206 Y178.549 E42.61987
G1 X8.057 Y178.307 E42.64254
G1 X8.023 Y178.249 E42.6479
G1 X7.74 Y177.739 E42.69442
G1 X7.704 Y177.67 E42.70063
G1 X7.602 Y177.461 E42.71918
G1 X7.571 Y177.394 E42.72506
G1 X7.321 Y176.809 E42.7758
G1 X7.291 Y176.732 E42.7824
G1 X7.202 Y176.487 E42.80318
G1 X7.179 Y176.42 E42.80883
G1 X7 Y175.842 E42.85709
G1 X6.979 Y175.767 E42.86331
G1 X6.914 Y175.51 E42.88445
G1 X6.898 Y175.438 E42.89033
G1 X6.783 Y174.865 E42.93694
G1 X6.776 Y174.825 E42.94018
G1 X6.694 Y174.352 E42.97847
G1 X6.184 Y171.613 E43.20068
G1 X5.587 Y168.848 E43.42629
G1 X4.939 Y166.206 E43.64325
G1 X4.181 Y163.455 E43.87084
G1 X3.378 Y160.831 E44.0897
G1 X2.479 Y158.17 E44.31372
G1 X1.064 Y154.409 E44.63421
G1 X0.99 Y154.224 E44.6501
G1 X0.9 Y153.892 E44.67754
G1 X0.884 Y153.692 E44.69354
G1 X0.88 Y153.354 E44.7205
G1 X0.88 Y153.313 E44.72377
G1 X0.919 Y150.854 E44.91991
G1 X0.92 Y150.832 E44.92167
G1 X0.942 Y150.109 E44.97936
G1 X0.962 Y149.903 E44.99587
G1 X1.004 Y149.659 E45.01562
G1 X1.441 Y146.912 E45.23746
G1 X1.805 Y144.122 E45.46187
G1 X2.082 Y141.386 E45.6812
G1 X2.285 Y138.611 E45.90312
G1 X2.412 Y135.787 E46.12858
G1 X2.457 Y133.001 E46.35081
G1 X2.455 Y132.787 E46.36788
G1 X2.455 Y132.761 E46.36995
G1 X2.461 Y132.105 E46.42227
G1 X2.472 Y131.937 E46.4357
G1 X2.51 Y131.631 E46.46029
G1 X2.516 Y131.589 E46.46368
G1 X2.899 Y129.085 E46.66571
G1 X2.903 Y129.062 E46.66757
G1 X3.017 Y128.388 E46.72209
G1 X3.113 Y128.058 E46.7495
G1 X3.202 Y127.883 E46.76516
G1 X3.786 Y126.894 E46.85677
G1 X3.785 Y126.894 E46.85685
G1 X5.25 Y124.355 E47.09064
G1 X6.565 Y121.914 E47.31178
G1 X7.817 Y119.42 E47.53435
G1 X9 Y116.888 E47.75725
G1 X10.115 Y114.317 E47.98076
G1 X11.162 Y111.703 E48.20534
G1 X12.098 Y109.151 E48.42214
G1 X12.835 Y106.978 E48.60515
G1 X12.836 Y106.978 E48.60523
G1 X13.631 Y104.55 E48.80899
